; generated by SuperSlicer 2.3.57 on 2022-05-21 at 12:36:20 UTC

; 

; external perimeters extrusion width = 0.42mm
; perimeters extrusion width = 0.45mm
; infill extrusion width = 0.43mm
; solid infill extrusion width = 0.45mm
; top infill extrusion width = 0.43mm
; first layer extrusion width = 0.59mm

; object:{"name":"Körper1","id":"Körper1 id:0 copy 0","object_center":[130.321471,129.166193,0.000000],"boundingbox_center":[130.321471,129.166193,2.000000],"boundingbox_size":[49.970531,49.970531,4.000000]}
; Total objects to print: 1
M486 T1
; plater:{"center":[130.321471,129.166193,0.000000],"boundingbox_center":[130.321471,129.166193,2.000000],"boundingbox_size":[49.970531,49.970531,4.000000]}

M140 S60 ; set bed temperature
M104 S200 ; set temperature
;TYPE:Custom
G28 ; home all axes
G1 Z5 F5000 ; lift nozzle
M107
G21 ; set units to millimeters
G90 ; use absolute coordinates
M82 ; use absolute distances for extrusion
G92 E0
; Filament gcode
M109 S200 ; set temperature and wait for it to be reached
M190 S60 ; set bed temperature and wait for it to be reached
M107
;LAYER_CHANGE
;Z:0.3
;HEIGHT:0.3
G1 Z0.3 F7800
G1 E-2 F2400
G1 X108.208 Y106.121 F7800
G1 E0 F2400
;TYPE:Skirt
;WIDTH:0.44
G1 F1800
G1 X105.887 Y108.598 E0.15906
G1 X103.979 Y111.111 E0.30684
G1 X103.193 Y112.31 E0.37401
G1 X102.245 Y113.947 E0.46265
G1 X101.509 Y115.391 E0.5386
G1 X100.294 Y118.282 E0.68547
G1 X99.321 Y121.48 E0.84209
G1 X98.69 Y124.743 E0.9978
G1 X98.4 Y128.1 E1.15564
G1 X98.461 Y131.41 E1.31074
G1 X98.858 Y134.657 E1.46402
G1 X99.601 Y137.903 E1.62003
G1 X100.447 Y140.462 E1.74627
G1 X101.628 Y143.193 E1.88567
G1 X103.244 Y146.105 E2.04168
G1 X105.139 Y148.811 E2.19648
G1 X107.259 Y151.261 E2.34823
G1 X109.749 Y153.597 E2.5082
G1 X112.261 Y155.505 E2.65598
G1 X113.465 Y156.295 E2.72345
G1 X115.103 Y157.243 E2.81209
G1 X116.547 Y157.979 E2.88804
G1 X119.437 Y159.193 E3.03491
G1 X122.635 Y160.167 E3.19154
G1 X125.898 Y160.797 E3.34725
G1 X129.255 Y161.087 E3.50509
G1 X132.565 Y161.026 E3.66019
G1 X135.813 Y160.629 E3.81346
G1 X139.059 Y159.886 E3.96947
G1 X141.617 Y159.041 E4.09571
G1 X144.348 Y157.86 E4.23511
G1 X147.26 Y156.244 E4.39112
G1 X149.967 Y154.349 E4.54592
G1 X152.416 Y152.229 E4.69767
G1 X154.752 Y149.739 E4.85764
G1 X156.66 Y147.227 E5.00543
G1 X157.45 Y146.023 E5.0729
G1 X158.398 Y144.385 E5.16154
G1 X159.134 Y142.941 E5.23748
G1 X160.349 Y140.051 E5.38436
G1 X161.322 Y136.852 E5.54098
G1 X161.953 Y133.589 E5.69669
G1 X162.243 Y130.233 E5.85453
G1 X162.182 Y126.923 E6.00963
G1 X161.785 Y123.675 E6.1629
G1 X161.042 Y120.429 E6.31891
G1 X160.194 Y117.864 E6.44546
G1 X159.015 Y115.139 E6.58455
G1 X157.395 Y112.222 E6.74087
G1 X155.504 Y109.521 E6.89536
G1 X153.367 Y107.053 E7.04833
G1 X150.874 Y104.719 E7.2083
G1 X148.222 Y102.715 E7.36401
G1 X145.354 Y100.986 E7.52094
G1 X142.505 Y99.645 E7.66842
G1 X141.157 Y99.122 E7.7362
G1 X139.188 Y98.483 E7.8332
G1 X136.119 Y97.761 E7.98085
G1 X134.512 Y97.506 E8.0571
G1 X132.634 Y97.311 E8.14557
G1 X131.186 Y97.242 E8.21347
G1 X128.058 Y97.307 E8.36004
G1 X124.811 Y97.706 E8.51331
G1 X121.578 Y98.448 E8.66871
G1 X119.001 Y99.301 E8.79587
G1 X116.289 Y100.475 E8.93435
G1 X113.378 Y102.092 E9.09036
G1 X110.676 Y103.984 E9.24486
G1 X108.253 Y106.082 E9.39501
G1 X108.499 Y106.365 F7800
G1 F1800
G1 X108.47 Y106.391 E9.39683
G1 X106.172 Y108.843 E9.55428
G1 X104.285 Y111.328 E9.70046
G1 X103.513 Y112.507 E9.76649
G1 X102.57 Y114.135 E9.85461
G1 X101.852 Y115.544 E9.92872
G1 X100.648 Y118.409 E10.07432
G1 X99.686 Y121.57 E10.2291
G1 X99.062 Y124.795 E10.38299
G1 X98.776 Y128.106 E10.53866
G1 X98.836 Y131.383 E10.69226
G1 X99.229 Y134.594 E10.84378
G1 X99.963 Y137.802 E10.99797
G1 X100.797 Y140.327 E11.12253
G1 X101.963 Y143.024 E11.26023
G1 X103.56 Y145.902 E11.41442
G1 X105.433 Y148.578 E11.56742
G1 X107.533 Y151.004 E11.71776
G1 X109.998 Y153.316 E11.87609
G1 X112.484 Y155.203 E12.02228
G1 X113.662 Y155.975 E12.0883
G1 X115.29 Y156.917 E12.17642
G1 X116.7 Y157.636 E12.25053
G1 X119.565 Y158.84 E12.39613
G1 X122.725 Y159.802 E12.55091
G1 X125.95 Y160.425 E12.7048
G1 X129.261 Y160.712 E12.86047
G1 X132.539 Y160.652 E13.01407
G1 X135.749 Y160.259 E13.16559
G1 X138.957 Y159.525 E13.31978
G1 X141.482 Y158.691 E13.44435
G1 X144.18 Y157.524 E13.58204
G1 X147.057 Y155.927 E13.73623
G1 X149.733 Y154.055 E13.88923
G1 X152.159 Y151.955 E14.03957
G1 X154.471 Y149.489 E14.1979
G1 X156.358 Y147.004 E14.34409
G1 X157.13 Y145.825 E14.41012
G1 X158.073 Y144.197 E14.49823
G1 X158.791 Y142.788 E14.57235
G1 X159.995 Y139.923 E14.71794
G1 X160.957 Y136.762 E14.87272
G1 X161.581 Y133.537 E15.02662
G1 X161.867 Y130.227 E15.18229
G1 X161.807 Y126.949 E15.33588
G1 X161.414 Y123.739 E15.4874
G1 X160.68 Y120.53 E15.64159
G1 X159.844 Y118 E15.76646
G1 X158.677 Y115.302 E15.90415
G1 X157.079 Y112.425 E16.05834
G1 X155.206 Y109.75 E16.21134
G1 X153.093 Y107.31 E16.36257
G1 X150.63 Y105.004 E16.5206
G1 X148.009 Y103.024 E16.6745
G1 X145.174 Y101.316 E16.82957
G1 X142.356 Y99.99 E16.97547
G1 X141.031 Y99.475 E17.04208
G1 X139.079 Y98.842 E17.13823
G1 X136.041 Y98.128 E17.2844
G1 X134.473 Y97.88 E17.3588
G1 X132.601 Y97.685 E17.44694
G1 X131.186 Y97.618 E17.51333
G1 X128.085 Y97.682 E17.65863
G1 X124.875 Y98.076 E17.81016
G1 X121.68 Y98.809 E17.96375
G1 X119.137 Y99.651 E18.08921
G1 X116.458 Y100.811 E18.22601
G1 X113.58 Y102.408 E18.3802
G1 X110.905 Y104.282 E18.5332
G1 X108.544 Y106.326 E18.6795
G1 X108.79 Y106.61 F7800
G1 F1800
G1 X108.727 Y106.665 E18.68344
G1 X106.457 Y109.087 E18.83896
G1 X104.591 Y111.546 E18.98356
G1 X103.832 Y112.704 E19.04844
G1 X102.896 Y114.323 E19.13605
G1 X102.195 Y115.697 E19.20833
G1 X101.001 Y118.537 E19.35263
G1 X100.05 Y121.66 E19.50557
G1 X99.434 Y124.847 E19.65765
G1 X99.151 Y128.118 E19.81145
G1 X99.211 Y131.357 E19.96324
G1 X99.599 Y134.53 E20.11301
G1 X100.326 Y137.706 E20.26566
G1 X101.15 Y140.197 E20.38857
G1 X102.302 Y142.861 E20.52456
G1 X103.88 Y145.705 E20.67692
G1 X105.731 Y148.349 E20.82813
G1 X107.807 Y150.748 E20.97676
G1 X110.238 Y153.027 E21.13286
G1 X112.701 Y154.896 E21.27774
G1 X113.86 Y155.655 E21.34262
G1 X115.478 Y156.592 E21.43023
G1 X116.853 Y157.293 E21.50251
G1 X119.692 Y158.487 E21.64682
G1 X122.815 Y159.437 E21.79975
G1 X126.002 Y160.053 E21.95183
G1 X129.273 Y160.336 E22.10563
G1 X132.512 Y160.277 E22.25742
G1 X135.686 Y159.889 E22.4072
G1 X138.862 Y159.162 E22.55985
G1 X141.352 Y158.338 E22.68275
G1 X144.017 Y157.186 E22.81874
G1 X146.86 Y155.608 E22.9711
G1 X149.504 Y153.757 E23.12232
G1 X151.903 Y151.68 E23.27094
G1 X154.182 Y149.25 E23.42704
G1 X156.052 Y146.786 E23.57192
G1 X156.811 Y145.628 E23.6368
G1 X157.747 Y144.01 E23.72441
G1 X158.448 Y142.635 E23.79669
G1 X159.642 Y139.796 E23.941
G1 X160.592 Y136.673 E24.09394
G1 X161.209 Y133.486 E24.24601
G1 X161.492 Y130.215 E24.39981
G1 X161.432 Y126.975 E24.5516
G1 X161.044 Y123.802 E24.70138
G1 X160.317 Y120.626 E24.85403
G1 X159.493 Y118.135 E24.97693
G1 X158.341 Y115.471 E25.11292
G1 X156.763 Y112.628 E25.26528
G1 X154.912 Y109.983 E25.4165
G1 X152.823 Y107.571 E25.56599
G1 X150.391 Y105.294 E25.72209
G1 X147.796 Y103.334 E25.87445
G1 X144.994 Y101.646 E26.02768
G1 X142.207 Y100.335 E26.17198
G1 X140.905 Y99.829 E26.23744
G1 X138.976 Y99.203 E26.33244
G1 X135.963 Y98.496 E26.47741
G1 X134.433 Y98.254 E26.54998
G1 X132.576 Y98.06 E26.63749
G1 X131.186 Y97.993 E26.70268
G1 X128.112 Y98.057 E26.8467
G1 X124.939 Y98.446 E26.99647
G1 X121.781 Y99.171 E27.14826
G1 X119.273 Y100.001 E27.27202
G1 X116.626 Y101.146 E27.40715
G1 X113.783 Y102.725 E27.55951
G1 X111.139 Y104.576 E27.71073
G1 X108.835 Y106.57 E27.85347
; INIT printing object Körper1 id:0 copy 0
G92 E0
G1 E-2 F2400
; printing object Körper1 id:0 copy 0
M486 S0
G1 X113.605 Y112.45 F7800
G1 E0 F2400
;TYPE:Internal perimeter
;WIDTH:0.592
G1 F1800
G1 X114.211 Y112.206 E0.043
G1 X114.724 Y111.843 E0.08433
G1 X115.138 Y111.371 E0.12565
G1 X115.444 Y110.794 E0.16865
G1 X116.072 Y110.615 E0.21166
G1 X116.62 Y110.308 E0.25298
G1 X117.081 Y109.882 E0.2943
G1 X117.446 Y109.339 E0.33731
G1 X118.09 Y109.227 E0.38031
G1 X118.666 Y108.979 E0.42163
G1 X119.17 Y108.603 E0.46295
G1 X119.589 Y108.102 E0.50596
G1 X120.241 Y108.058 E0.54896
G1 X120.84 Y107.871 E0.59028
G1 X121.38 Y107.55 E0.6316
G1 X121.849 Y107.096 E0.67461
G1 X122.502 Y107.12 E0.71761
G1 X123.118 Y106.997 E0.75894
G1 X123.689 Y106.734 E0.80026
G1 X124.203 Y106.331 E0.84326
G1 X124.85 Y106.423 E0.88627
G1 X125.475 Y106.365 E0.92759
G1 X126.07 Y106.164 E0.96891
G1 X126.623 Y105.816 E1.01192
G1 X127.257 Y105.976 E1.05492
G1 X127.885 Y105.983 E1.09624
G1 X128.497 Y105.845 E1.13756
G1 X129.084 Y105.558 E1.18057
G1 X129.698 Y105.782 E1.22357
G1 X130.321 Y105.856 E1.26489
G1 X130.945 Y105.782 E1.30621
G1 X131.559 Y105.558 E1.34922
G1 X132.146 Y105.845 E1.39223
G1 X132.758 Y105.983 E1.43355
G1 X133.386 Y105.976 E1.47487
G1 X134.02 Y105.816 E1.51787
G1 X134.573 Y106.164 E1.56088
G1 X135.168 Y106.365 E1.6022
G1 X135.793 Y106.423 E1.64352
G1 X136.44 Y106.331 E1.68652
G1 X136.954 Y106.734 E1.72953
G1 X137.525 Y106.997 E1.77085
G1 X138.141 Y107.12 E1.81217
G1 X138.794 Y107.096 E1.85518
G1 X139.263 Y107.55 E1.89818
G1 X139.803 Y107.871 E1.9395
G1 X140.402 Y108.058 E1.98083
G1 X141.054 Y108.102 E2.02383
G1 X141.473 Y108.603 E2.06684
G1 X141.977 Y108.979 E2.10816
G1 X142.553 Y109.227 E2.14948
G1 X143.197 Y109.339 E2.19248
G1 X143.562 Y109.882 E2.23549
G1 X144.023 Y110.308 E2.27681
G1 X144.571 Y110.615 E2.31813
G1 X145.199 Y110.794 E2.36113
G1 X145.505 Y111.371 E2.40414
G1 X145.919 Y111.843 E2.44546
G1 X146.432 Y112.206 E2.48678
G1 X147.038 Y112.45 E2.52979
G1 X147.282 Y113.056 E2.57279
G1 X147.645 Y113.568 E2.61411
G1 X148.116 Y113.983 E2.65544
G1 X148.694 Y114.289 E2.69844
G1 X148.873 Y114.917 E2.74144
G1 X149.18 Y115.465 E2.78277
G1 X149.606 Y115.926 E2.82409
G1 X150.148 Y116.29 E2.86709
G1 X150.261 Y116.934 E2.9101
G1 X150.509 Y117.511 E2.95142
G1 X150.884 Y118.014 E2.99274
G1 X151.386 Y118.433 E3.03574
G1 X151.43 Y119.085 E3.07875
G1 X151.617 Y119.685 E3.12007
G1 X151.937 Y120.225 E3.16139
G1 X152.392 Y120.694 E3.2044
G1 X152.368 Y121.347 E3.2474
G1 X152.491 Y121.963 E3.28872
G1 X152.753 Y122.533 E3.33005
G1 X153.157 Y123.047 E3.37305
G1 X153.065 Y123.694 E3.41605
G1 X153.123 Y124.32 E3.45738
G1 X153.324 Y124.914 E3.4987
G1 X153.671 Y125.468 E3.5417
G1 X153.512 Y126.102 E3.58471
G1 X153.504 Y126.73 E3.62603
G1 X153.642 Y127.342 E3.66735
G1 X153.93 Y127.929 E3.71035
G1 X153.705 Y128.543 E3.75336
G1 X153.632 Y129.166 E3.79468
G1 X153.705 Y129.79 E3.836
G1 X153.93 Y130.403 E3.87901
G1 X153.642 Y130.99 E3.92201
G1 X153.504 Y131.603 E3.96333
G1 X153.512 Y132.231 E4.00466
G1 X153.671 Y132.864 E4.04766
G1 X153.324 Y133.418 E4.09066
G1 X153.123 Y134.013 E4.13199
G1 X153.065 Y134.638 E4.17331
G1 X153.157 Y135.285 E4.21631
G1 X152.753 Y135.799 E4.25932
G1 X152.491 Y136.37 E4.30064
G1 X152.368 Y136.985 E4.34196
G1 X152.392 Y137.638 E4.38496
G1 X151.937 Y138.108 E4.42797
G1 X151.617 Y138.647 E4.46929
G1 X151.43 Y139.247 E4.51061
G1 X151.386 Y139.899 E4.55362
G1 X150.884 Y140.318 E4.59662
G1 X150.509 Y140.821 E4.63794
G1 X150.261 Y141.398 E4.67926
G1 X150.148 Y142.042 E4.72227
G1 X149.606 Y142.406 E4.76527
G1 X149.18 Y142.868 E4.8066
G1 X148.873 Y143.415 E4.84792
G1 X148.694 Y144.044 E4.89092
G1 X148.116 Y144.35 E4.93393
G1 X147.645 Y144.764 E4.97525
G1 X147.282 Y145.276 E5.01657
G1 X147.038 Y145.883 E5.05957
G1 X146.432 Y146.126 E5.10258
G1 X145.919 Y146.489 E5.1439
G1 X145.505 Y146.961 E5.18522
G1 X145.199 Y147.539 E5.22823
G1 X144.571 Y147.718 E5.27123
G1 X144.023 Y148.025 E5.31255
G1 X143.562 Y148.451 E5.35387
G1 X143.197 Y148.993 E5.39688
G1 X142.553 Y149.105 E5.43988
G1 X141.977 Y149.354 E5.48121
G1 X141.473 Y149.729 E5.52253
G1 X141.054 Y150.23 E5.56553
G1 X140.402 Y150.275 E5.60854
G1 X139.803 Y150.461 E5.64986
G1 X139.263 Y150.782 E5.69118
G1 X138.794 Y151.237 E5.73418
G1 X138.141 Y151.213 E5.77719
G1 X137.525 Y151.336 E5.81851
G1 X136.954 Y151.598 E5.85983
G1 X136.44 Y152.002 E5.90284
G1 X135.793 Y151.909 E5.94584
G1 X135.168 Y151.967 E5.98716
G1 X134.573 Y152.169 E6.02848
G1 X134.02 Y152.516 E6.07149
G1 X133.386 Y152.357 E6.11449
G1 X132.758 Y152.349 E6.15582
G1 X132.146 Y152.487 E6.19714
G1 X131.559 Y152.775 E6.24014
G1 X130.945 Y152.55 E6.28315
G1 X130.321 Y152.477 E6.32447
G1 X129.698 Y152.55 E6.36579
G1 X129.084 Y152.775 E6.4088
G1 X128.497 Y152.487 E6.4518
G1 X127.885 Y152.349 E6.49312
G1 X127.257 Y152.357 E6.53444
G1 X126.623 Y152.516 E6.57745
G1 X126.07 Y152.169 E6.62045
G1 X125.475 Y151.967 E6.66177
G1 X124.85 Y151.909 E6.7031
G1 X124.203 Y152.002 E6.7461
G1 X123.689 Y151.598 E6.7891
G1 X123.118 Y151.336 E6.83043
G1 X122.502 Y151.213 E6.87175
G1 X121.849 Y151.237 E6.91475
G1 X121.38 Y150.782 E6.95776
G1 X120.84 Y150.461 E6.99908
G1 X120.241 Y150.275 E7.0404
G1 X119.589 Y150.23 E7.0834
G1 X119.17 Y149.729 E7.12641
G1 X118.666 Y149.354 E7.16773
G1 X118.09 Y149.105 E7.20905
G1 X117.446 Y148.993 E7.25206
G1 X117.081 Y148.451 E7.29506
G1 X116.62 Y148.025 E7.33638
G1 X116.072 Y147.718 E7.37771
G1 X115.444 Y147.539 E7.42071
G1 X115.138 Y146.961 E7.46371
G1 X114.724 Y146.489 E7.50504
G1 X114.211 Y146.126 E7.54636
G1 X113.605 Y145.883 E7.58936
G1 X113.361 Y145.276 E7.63237
G1 X112.998 Y144.764 E7.67369
G1 X112.527 Y144.35 E7.71501
G1 X111.949 Y144.044 E7.75801
G1 X111.77 Y143.415 E7.80102
G1 X111.463 Y142.868 E7.84234
G1 X111.037 Y142.406 E7.88366
G1 X110.495 Y142.042 E7.92667
G1 X110.382 Y141.398 E7.96967
G1 X110.134 Y140.821 E8.01099
G1 X109.759 Y140.318 E8.05231
G1 X109.257 Y139.899 E8.09532
G1 X109.213 Y139.247 E8.13832
G1 X109.026 Y138.647 E8.17965
G1 X108.706 Y138.108 E8.22097
G1 X108.251 Y137.638 E8.26397
G1 X108.275 Y136.985 E8.30698
G1 X108.152 Y136.37 E8.3483
G1 X107.889 Y135.799 E8.38962
G1 X107.486 Y135.285 E8.43262
G1 X107.578 Y134.638 E8.47563
G1 X107.52 Y134.013 E8.51695
G1 X107.319 Y133.418 E8.55827
G1 X106.972 Y132.864 E8.60128
G1 X107.131 Y132.231 E8.64428
G1 X107.139 Y131.603 E8.6856
G1 X107.001 Y130.99 E8.72692
G1 X106.713 Y130.403 E8.76993
G1 X106.938 Y129.79 E8.81293
G1 X107.011 Y129.166 E8.85426
G1 X106.938 Y128.543 E8.89558
G1 X106.713 Y127.929 E8.93858
G1 X107.001 Y127.342 E8.98159
G1 X107.139 Y126.73 E9.02291
G1 X107.131 Y126.102 E9.06423
G1 X106.972 Y125.468 E9.10723
G1 X107.319 Y124.914 E9.15024
G1 X107.52 Y124.32 E9.19156
G1 X107.578 Y123.694 E9.23288
G1 X107.486 Y123.047 E9.27589
G1 X107.889 Y122.533 E9.31889
G1 X108.152 Y121.963 E9.36021
G1 X108.275 Y121.347 E9.40154
G1 X108.251 Y120.694 E9.44454
G1 X108.706 Y120.225 E9.48754
G1 X109.026 Y119.685 E9.52887
G1 X109.213 Y119.085 E9.57019
G1 X109.257 Y118.433 E9.61319
G1 X109.759 Y118.014 E9.6562
G1 X110.134 Y117.511 E9.69752
G1 X110.382 Y116.934 E9.73884
G1 X110.495 Y116.29 E9.78184
G1 X111.037 Y115.926 E9.82485
G1 X111.463 Y115.465 E9.86617
G1 X111.77 Y114.917 E9.90749
G1 X111.949 Y114.289 E9.9505
G1 X112.527 Y113.983 E9.9935
G1 X112.998 Y113.568 E10.03482
G1 X113.361 Y113.056 E10.07614
G1 X113.582 Y112.505 E10.1152
G1 X113.103 Y112.2 F7800
G1 F1800
G1 X113.356 Y111.947 E10.13875
G1 X113.489 Y111.927 E10.14765
G1 X113.957 Y111.739 E10.18081
G1 X114.368 Y111.448 E10.21397
G1 X114.701 Y111.07 E10.24713
G1 X114.936 Y110.624 E10.28029
G1 X114.97 Y110.493 E10.2892
G1 X115.248 Y110.268 E10.31274
G1 X115.384 Y110.262 E10.32165
G1 X115.868 Y110.124 E10.35481
G1 X116.308 Y109.878 E10.38797
G1 X116.678 Y109.536 E10.42113
G1 X116.959 Y109.118 E10.45429
G1 X117.006 Y108.991 E10.46319
G1 X117.306 Y108.796 E10.48674
G1 X117.441 Y108.804 E10.49564
G1 X117.938 Y108.718 E10.5288
G1 X118.401 Y108.519 E10.56196
G1 X118.805 Y108.217 E10.59512
G1 X119.128 Y107.831 E10.62828
G1 X119.188 Y107.71 E10.63719
G1 X119.507 Y107.547 E10.66073
G1 X119.64 Y107.57 E10.66964
G1 X120.143 Y107.535 E10.7028
G1 X120.624 Y107.386 E10.73596
G1 X121.057 Y107.128 E10.76912
G1 X121.419 Y106.778 E10.80228
G1 X121.493 Y106.661 E10.81136
G1 X121.82 Y106.534 E10.83443
G1 X121.956 Y106.571 E10.84375
G1 X122.46 Y106.59 E10.87691
G1 X122.954 Y106.491 E10.91007
G1 X123.412 Y106.281 E10.94323
G1 X123.808 Y105.97 E10.97639
G1 X123.892 Y105.864 E10.98529
