; generated by SuperSlicer 2.3.57 on 2022-05-21 at 11:57:54 UTC

; 

; external perimeters extrusion width = 0.42mm
; perimeters extrusion width = 0.46mm
; infill extrusion width = 0.44mm
; solid infill extrusion width = 0.46mm
; top infill extrusion width = 0.44mm
; first layer extrusion width = 0.60mm

; object:{"name":"Körper1","id":"Körper1 id:0 copy 0","object_center":[130.321471,129.166193,0.000000],"boundingbox_center":[130.321471,129.166193,2.000000],"boundingbox_size":[49.970531,49.970531,4.000000]}
; Total objects to print: 1
M486 T1
; plater:{"center":[130.321471,129.166193,0.000000],"boundingbox_center":[130.321471,129.166193,2.000000],"boundingbox_size":[49.970531,49.970531,4.000000]}

M140 S60 ; set bed temperature
M104 S200 ; set temperature
;TYPE:Custom
G28 ; home all axes
G1 Z5 F5000 ; lift nozzle
M107
G21 ; set units to millimeters
G90 ; use absolute coordinates
M82 ; use absolute distances for extrusion
G92 E0
; Filament gcode
M109 S200 ; set temperature and wait for it to be reached
M190 S60 ; set bed temperature and wait for it to be reached
M107
;LAYER_CHANGE
;Z:0.3
;HEIGHT:0.3
G1 Z0.3 F7800
G1 E-2 F2400
G1 X108.208 Y106.121 F7800
G1 E0 F2400
;TYPE:Skirt
;WIDTH:0.44
G1 F1800
G1 X105.887 Y108.598 E0.15906
G1 X103.979 Y111.111 E0.30684
G1 X103.193 Y112.31 E0.37401
G1 X102.245 Y113.947 E0.46265
G1 X101.509 Y115.391 E0.5386
G1 X100.294 Y118.282 E0.68547
G1 X99.321 Y121.48 E0.84209
G1 X98.69 Y124.743 E0.9978
G1 X98.4 Y128.1 E1.15564
G1 X98.461 Y131.41 E1.31074
G1 X98.858 Y134.657 E1.46402
G1 X99.601 Y137.903 E1.62003
G1 X100.447 Y140.462 E1.74627
G1 X101.628 Y143.193 E1.88567
G1 X103.244 Y146.105 E2.04168
G1 X105.139 Y148.811 E2.19648
G1 X107.259 Y151.261 E2.34823
G1 X109.749 Y153.597 E2.5082
G1 X112.261 Y155.505 E2.65598
G1 X113.465 Y156.295 E2.72345
G1 X115.103 Y157.243 E2.81209
G1 X116.547 Y157.979 E2.88804
G1 X119.437 Y159.193 E3.03491
G1 X122.635 Y160.167 E3.19154
G1 X125.898 Y160.797 E3.34725
G1 X129.255 Y161.087 E3.50509
G1 X132.565 Y161.026 E3.66019
G1 X135.813 Y160.629 E3.81346
G1 X139.059 Y159.886 E3.96947
G1 X141.617 Y159.041 E4.09571
G1 X144.348 Y157.86 E4.23511
G1 X147.26 Y156.244 E4.39112
G1 X149.967 Y154.349 E4.54592
G1 X152.416 Y152.229 E4.69767
G1 X154.752 Y149.739 E4.85764
G1 X156.66 Y147.227 E5.00543
G1 X157.45 Y146.023 E5.0729
G1 X158.398 Y144.385 E5.16154
G1 X159.134 Y142.941 E5.23748
G1 X160.349 Y140.051 E5.38436
G1 X161.322 Y136.852 E5.54098
G1 X161.953 Y133.589 E5.69669
G1 X162.243 Y130.233 E5.85453
G1 X162.182 Y126.923 E6.00963
G1 X161.785 Y123.675 E6.1629
G1 X161.042 Y120.429 E6.31891
G1 X160.194 Y117.864 E6.44546
G1 X159.015 Y115.139 E6.58455
G1 X157.395 Y112.222 E6.74087
G1 X155.504 Y109.521 E6.89536
G1 X153.367 Y107.053 E7.04833
G1 X150.874 Y104.719 E7.2083
G1 X148.222 Y102.715 E7.36401
G1 X145.354 Y100.986 E7.52094
G1 X142.505 Y99.645 E7.66842
G1 X141.157 Y99.122 E7.7362
G1 X139.188 Y98.483 E7.8332
G1 X136.119 Y97.761 E7.98085
G1 X134.512 Y97.506 E8.0571
G1 X132.634 Y97.311 E8.14557
G1 X131.186 Y97.242 E8.21347
G1 X128.058 Y97.307 E8.36004
G1 X124.811 Y97.706 E8.51331
G1 X121.578 Y98.448 E8.66871
G1 X119.001 Y99.301 E8.79587
G1 X116.289 Y100.475 E8.93435
G1 X113.378 Y102.092 E9.09036
G1 X110.676 Y103.984 E9.24486
G1 X108.253 Y106.082 E9.39501
G1 X108.499 Y106.365 F7800
G1 F1800
G1 X108.47 Y106.391 E9.39683
G1 X106.172 Y108.843 E9.55428
G1 X104.285 Y111.328 E9.70046
G1 X103.513 Y112.507 E9.76649
G1 X102.57 Y114.135 E9.85461
G1 X101.852 Y115.544 E9.92872
G1 X100.648 Y118.409 E10.07432
G1 X99.686 Y121.57 E10.2291
G1 X99.062 Y124.795 E10.38299
G1 X98.776 Y128.106 E10.53866
G1 X98.836 Y131.383 E10.69226
G1 X99.229 Y134.594 E10.84378
G1 X99.963 Y137.802 E10.99797
G1 X100.797 Y140.327 E11.12253
G1 X101.963 Y143.024 E11.26023
G1 X103.56 Y145.902 E11.41442
G1 X105.433 Y148.578 E11.56742
G1 X107.533 Y151.004 E11.71776
G1 X109.998 Y153.316 E11.87609
G1 X112.484 Y155.203 E12.02228
G1 X113.662 Y155.975 E12.0883
G1 X115.29 Y156.917 E12.17642
G1 X116.7 Y157.636 E12.25053
G1 X119.565 Y158.84 E12.39613
G1 X122.725 Y159.802 E12.55091
G1 X125.95 Y160.425 E12.7048
G1 X129.261 Y160.712 E12.86047
G1 X132.539 Y160.652 E13.01407
G1 X135.749 Y160.259 E13.16559
G1 X138.957 Y159.525 E13.31978
G1 X141.482 Y158.691 E13.44435
G1 X144.18 Y157.524 E13.58204
G1 X147.057 Y155.927 E13.73623
G1 X149.733 Y154.055 E13.88923
G1 X152.159 Y151.955 E14.03957
G1 X154.471 Y149.489 E14.1979
G1 X156.358 Y147.004 E14.34409
G1 X157.13 Y145.825 E14.41012
G1 X158.073 Y144.197 E14.49823
G1 X158.791 Y142.788 E14.57235
G1 X159.995 Y139.923 E14.71794
G1 X160.957 Y136.762 E14.87272
G1 X161.581 Y133.537 E15.02662
G1 X161.867 Y130.227 E15.18229
G1 X161.807 Y126.949 E15.33588
G1 X161.414 Y123.739 E15.4874
G1 X160.68 Y120.53 E15.64159
G1 X159.844 Y118 E15.76646
G1 X158.677 Y115.302 E15.90415
G1 X157.079 Y112.425 E16.05834
G1 X155.206 Y109.75 E16.21134
G1 X153.093 Y107.31 E16.36257
G1 X150.63 Y105.004 E16.5206
G1 X148.009 Y103.024 E16.6745
G1 X145.174 Y101.316 E16.82957
G1 X142.356 Y99.99 E16.97547
G1 X141.031 Y99.475 E17.04208
G1 X139.079 Y98.842 E17.13823
G1 X136.041 Y98.128 E17.2844
G1 X134.473 Y97.88 E17.3588
G1 X132.601 Y97.685 E17.44694
G1 X131.186 Y97.618 E17.51333
G1 X128.085 Y97.682 E17.65863
G1 X124.875 Y98.076 E17.81016
G1 X121.68 Y98.809 E17.96375
G1 X119.137 Y99.651 E18.08921
G1 X116.458 Y100.811 E18.22601
G1 X113.58 Y102.408 E18.3802
G1 X110.905 Y104.282 E18.5332
G1 X108.544 Y106.326 E18.6795
G1 X108.79 Y106.61 F7800
G1 F1800
G1 X108.727 Y106.665 E18.68344
G1 X106.457 Y109.087 E18.83896
G1 X104.591 Y111.546 E18.98356
G1 X103.832 Y112.704 E19.04844
G1 X102.896 Y114.323 E19.13605
G1 X102.195 Y115.697 E19.20833
G1 X101.001 Y118.537 E19.35263
G1 X100.05 Y121.66 E19.50557
G1 X99.434 Y124.847 E19.65765
G1 X99.151 Y128.118 E19.81145
G1 X99.211 Y131.357 E19.96324
G1 X99.599 Y134.53 E20.11301
G1 X100.326 Y137.706 E20.26566
G1 X101.15 Y140.197 E20.38857
G1 X102.302 Y142.861 E20.52456
G1 X103.88 Y145.705 E20.67692
G1 X105.731 Y148.349 E20.82813
G1 X107.807 Y150.748 E20.97676
G1 X110.238 Y153.027 E21.13286
G1 X112.701 Y154.896 E21.27774
G1 X113.86 Y155.655 E21.34262
G1 X115.478 Y156.592 E21.43023
G1 X116.853 Y157.293 E21.50251
G1 X119.692 Y158.487 E21.64682
G1 X122.815 Y159.437 E21.79975
G1 X126.002 Y160.053 E21.95183
G1 X129.273 Y160.336 E22.10563
G1 X132.512 Y160.277 E22.25742
G1 X135.686 Y159.889 E22.4072
G1 X138.862 Y159.162 E22.55985
G1 X141.352 Y158.338 E22.68275
G1 X144.017 Y157.186 E22.81874
G1 X146.86 Y155.608 E22.9711
G1 X149.504 Y153.757 E23.12232
G1 X151.903 Y151.68 E23.27094
G1 X154.182 Y149.25 E23.42704
G1 X156.052 Y146.786 E23.57192
G1 X156.811 Y145.628 E23.6368
G1 X157.747 Y144.01 E23.72441
G1 X158.448 Y142.635 E23.79669
G1 X159.642 Y139.796 E23.941
G1 X160.592 Y136.673 E24.09394
G1 X161.209 Y133.486 E24.24601
G1 X161.492 Y130.215 E24.39981
G1 X161.432 Y126.975 E24.5516
G1 X161.044 Y123.802 E24.70138
G1 X160.317 Y120.626 E24.85403
G1 X159.493 Y118.135 E24.97693
G1 X158.341 Y115.471 E25.11292
G1 X156.763 Y112.628 E25.26528
G1 X154.912 Y109.983 E25.4165
G1 X152.823 Y107.571 E25.56599
G1 X150.391 Y105.294 E25.72209
G1 X147.796 Y103.334 E25.87445
G1 X144.994 Y101.646 E26.02768
G1 X142.207 Y100.335 E26.17198
G1 X140.905 Y99.829 E26.23744
G1 X138.976 Y99.203 E26.33244
G1 X135.963 Y98.496 E26.47741
G1 X134.433 Y98.254 E26.54998
G1 X132.576 Y98.06 E26.63749
G1 X131.186 Y97.993 E26.70268
G1 X128.112 Y98.057 E26.8467
G1 X124.939 Y98.446 E26.99647
G1 X121.781 Y99.171 E27.14826
G1 X119.273 Y100.001 E27.27202
G1 X116.626 Y101.146 E27.40715
G1 X113.783 Y102.725 E27.55951
G1 X111.139 Y104.576 E27.71073
G1 X108.835 Y106.57 E27.85347
; INIT printing object Körper1 id:0 copy 0
G92 E0
G1 E-2 F2400
; printing object Körper1 id:0 copy 0
M486 S0
G1 X113.628 Y112.473 F7800
G1 E0 F2400
;TYPE:Internal perimeter
;WIDTH:0.604
G1 F1800
G1 X114.226 Y112.232 E0.04336
G1 X114.744 Y111.866 E0.08609
G1 X115.163 Y111.389 E0.12883
G1 X115.464 Y110.819 E0.17219
G1 X116.084 Y110.643 E0.21555
G1 X116.638 Y110.332 E0.25828
G1 X117.104 Y109.901 E0.30102
G1 X117.463 Y109.367 E0.34438
G1 X118.098 Y109.256 E0.38774
G1 X118.681 Y109.005 E0.43047
G1 X119.19 Y108.625 E0.47321
G1 X119.604 Y108.131 E0.51657
G1 X120.246 Y108.087 E0.55993
G1 X120.853 Y107.899 E0.60266
G1 X121.398 Y107.574 E0.6454
G1 X121.861 Y107.126 E0.68876
G1 X122.505 Y107.15 E0.73211
G1 X123.127 Y107.025 E0.77485
G1 X123.704 Y106.76 E0.81759
G1 X124.211 Y106.362 E0.86094
G1 X124.849 Y106.453 E0.9043
G1 X125.481 Y106.395 E0.94704
G1 X126.083 Y106.191 E0.98977
G1 X126.628 Y105.849 E1.03313
G1 X127.253 Y106.006 E1.07649
G1 X127.888 Y106.013 E1.11923
G1 X128.507 Y105.874 E1.16196
G1 X129.086 Y105.59 E1.20532
G1 X129.691 Y105.812 E1.24868
G1 X130.321 Y105.886 E1.29142
G1 X130.952 Y105.812 E1.33415
G1 X131.557 Y105.59 E1.37751
G1 X132.136 Y105.874 E1.42087
G1 X132.755 Y106.013 E1.46361
G1 X133.39 Y106.006 E1.50634
G1 X134.015 Y105.849 E1.5497
G1 X134.56 Y106.191 E1.59306
G1 X135.162 Y106.395 E1.63579
G1 X135.794 Y106.453 E1.67853
G1 X136.432 Y106.362 E1.72189
G1 X136.939 Y106.76 E1.76525
G1 X137.515 Y107.025 E1.80798
G1 X138.138 Y107.15 E1.85072
G1 X138.782 Y107.126 E1.89408
G1 X139.244 Y107.574 E1.93744
G1 X139.79 Y107.899 E1.98017
G1 X140.397 Y108.087 E2.02291
G1 X141.039 Y108.131 E2.06627
G1 X141.453 Y108.625 E2.10962
G1 X141.962 Y109.005 E2.15236
G1 X142.545 Y109.256 E2.1951
G1 X143.179 Y109.367 E2.23846
G1 X143.539 Y109.901 E2.28181
G1 X144.005 Y110.332 E2.32455
G1 X144.559 Y110.643 E2.36729
G1 X145.179 Y110.819 E2.41064
G1 X145.48 Y111.389 E2.454
G1 X145.899 Y111.866 E2.49674
G1 X146.417 Y112.232 E2.53947
G1 X147.015 Y112.473 E2.58283
G1 X147.255 Y113.07 E2.62619
G1 X147.622 Y113.589 E2.66893
G1 X148.099 Y114.008 E2.71166
G1 X148.669 Y114.309 E2.75502
G1 X148.845 Y114.929 E2.79838
G1 X149.156 Y115.482 E2.84112
G1 X149.586 Y115.949 E2.88385
G1 X150.121 Y116.308 E2.92721
G1 X150.232 Y116.943 E2.97057
G1 X150.483 Y117.526 E3.0133
G1 X150.862 Y118.035 E3.05604
G1 X151.357 Y118.448 E3.0994
G1 X151.4 Y119.091 E3.14276
G1 X151.589 Y119.697 E3.18549
G1 X151.913 Y120.243 E3.22823
G1 X152.362 Y120.706 E3.27159
G1 X152.338 Y121.35 E3.31495
G1 X152.462 Y121.972 E3.35768
G1 X152.728 Y122.549 E3.40042
G1 X153.125 Y123.056 E3.44378
G1 X153.034 Y123.694 E3.48714
G1 X153.093 Y124.326 E3.52987
G1 X153.297 Y124.927 E3.57261
G1 X153.639 Y125.473 E3.61597
G1 X153.482 Y126.098 E3.65932
G1 X153.474 Y126.733 E3.70206
G1 X153.614 Y127.352 E3.7448
G1 X153.897 Y127.931 E3.78815
G1 X153.676 Y128.536 E3.83151
G1 X153.602 Y129.166 E3.87425
G1 X153.676 Y129.797 E3.91698
G1 X153.897 Y130.402 E3.96034
G1 X153.614 Y130.98 E4.0037
G1 X153.474 Y131.6 E4.04644
G1 X153.482 Y132.235 E4.08917
G1 X153.639 Y132.859 E4.13253
G1 X153.297 Y133.405 E4.17589
G1 X153.093 Y134.006 E4.21863
G1 X153.034 Y134.639 E4.26136
G1 X153.125 Y135.276 E4.30472
G1 X152.728 Y135.783 E4.34808
G1 X152.462 Y136.36 E4.39082
G1 X152.338 Y136.983 E4.43355
G1 X152.362 Y137.627 E4.47691
G1 X151.913 Y138.089 E4.52027
G1 X151.589 Y138.635 E4.563
G1 X151.4 Y139.241 E4.60574
G1 X151.357 Y139.884 E4.6491
G1 X150.862 Y140.297 E4.69246
G1 X150.483 Y140.806 E4.73519
G1 X150.232 Y141.39 E4.77793
G1 X150.121 Y142.024 E4.82129
G1 X149.586 Y142.383 E4.86465
G1 X149.156 Y142.85 E4.90738
G1 X148.845 Y143.404 E4.95012
G1 X148.669 Y144.023 E4.99348
G1 X148.099 Y144.325 E5.03683
G1 X147.622 Y144.744 E5.07957
G1 X147.255 Y145.262 E5.12231
G1 X147.015 Y145.86 E5.16567
G1 X146.417 Y146.1 E5.20902
G1 X145.899 Y146.467 E5.25176
G1 X145.48 Y146.944 E5.2945
G1 X145.179 Y147.513 E5.33785
G1 X144.559 Y147.69 E5.38121
G1 X144.005 Y148 E5.42395
G1 X143.539 Y148.431 E5.46668
G1 X143.179 Y148.966 E5.51004
G1 X142.545 Y149.076 E5.5534
G1 X141.962 Y149.328 E5.59614
G1 X141.453 Y149.707 E5.63887
G1 X141.039 Y150.201 E5.68223
G1 X140.397 Y150.245 E5.72559
G1 X139.79 Y150.434 E5.76833
G1 X139.244 Y150.758 E5.81106
G1 X138.782 Y151.206 E5.85442
G1 X138.138 Y151.183 E5.89778
G1 X137.515 Y151.307 E5.94051
G1 X136.939 Y151.572 E5.98325
G1 X136.432 Y151.97 E6.02661
G1 X135.794 Y151.879 E6.06997
G1 X135.162 Y151.938 E6.1127
G1 X134.56 Y152.141 E6.15544
G1 X134.015 Y152.484 E6.1988
G1 X133.39 Y152.327 E6.24216
G1 X132.755 Y152.319 E6.28489
G1 X132.136 Y152.459 E6.32763
G1 X131.557 Y152.742 E6.37099
G1 X130.952 Y152.521 E6.41435
G1 X130.321 Y152.446 E6.45708
G1 X129.691 Y152.521 E6.49982
G1 X129.086 Y152.742 E6.54318
G1 X128.507 Y152.459 E6.58653
G1 X127.888 Y152.319 E6.62927
G1 X127.253 Y152.327 E6.67201
G1 X126.628 Y152.484 E6.71536
G1 X126.083 Y152.141 E6.75872
G1 X125.481 Y151.938 E6.80146
G1 X124.849 Y151.879 E6.8442
G1 X124.211 Y151.97 E6.88755
G1 X123.704 Y151.572 E6.93091
G1 X123.127 Y151.307 E6.97365
G1 X122.505 Y151.183 E7.01638
G1 X121.861 Y151.206 E7.05974
G1 X121.398 Y150.758 E7.1031
G1 X120.853 Y150.434 E7.14584
G1 X120.246 Y150.245 E7.18857
G1 X119.604 Y150.201 E7.23193
G1 X119.19 Y149.707 E7.27529
G1 X118.681 Y149.328 E7.31803
G1 X118.098 Y149.076 E7.36076
G1 X117.463 Y148.966 E7.40412
G1 X117.104 Y148.431 E7.44748
G1 X116.638 Y148 E7.49021
G1 X116.084 Y147.69 E7.53295
G1 X115.464 Y147.513 E7.57631
G1 X115.163 Y146.944 E7.61967
G1 X114.744 Y146.467 E7.6624
G1 X114.226 Y146.1 E7.70514
G1 X113.628 Y145.86 E7.7485
G1 X113.388 Y145.262 E7.79186
G1 X113.021 Y144.744 E7.83459
G1 X112.544 Y144.325 E7.87733
G1 X111.974 Y144.023 E7.92069
G1 X111.798 Y143.404 E7.96405
G1 X111.487 Y142.85 E8.00678
G1 X111.057 Y142.383 E8.04952
G1 X110.522 Y142.024 E8.09288
G1 X110.411 Y141.39 E8.13623
G1 X110.16 Y140.806 E8.17897
G1 X109.781 Y140.297 E8.22171
G1 X109.286 Y139.884 E8.26506
G1 X109.243 Y139.241 E8.30842
G1 X109.054 Y138.635 E8.35116
G1 X108.73 Y138.089 E8.39389
G1 X108.281 Y137.627 E8.43725
G1 X108.305 Y136.983 E8.48061
G1 X108.181 Y136.36 E8.52335
G1 X107.915 Y135.783 E8.56608
G1 X107.518 Y135.276 E8.60944
G1 X107.609 Y134.639 E8.6528
G1 X107.55 Y134.006 E8.69554
G1 X107.346 Y133.405 E8.73827
G1 X107.004 Y132.859 E8.78163
G1 X107.161 Y132.235 E8.82499
G1 X107.169 Y131.6 E8.86773
G1 X107.029 Y130.98 E8.91046
G1 X106.746 Y130.402 E8.95382
G1 X106.967 Y129.797 E8.99718
G1 X107.041 Y129.166 E9.03991
G1 X106.967 Y128.536 E9.08265
G1 X106.746 Y127.931 E9.12601
G1 X107.029 Y127.352 E9.16937
G1 X107.169 Y126.733 E9.2121
G1 X107.161 Y126.098 E9.25484
G1 X107.004 Y125.473 E9.2982
G1 X107.346 Y124.927 E9.34156
G1 X107.55 Y124.326 E9.38429
G1 X107.609 Y123.694 E9.42703
G1 X107.518 Y123.056 E9.47039
G1 X107.915 Y122.549 E9.51375
G1 X108.181 Y121.972 E9.55648
G1 X108.305 Y121.35 E9.59922
G1 X108.281 Y120.706 E9.64258
G1 X108.73 Y120.243 E9.68593
G1 X109.054 Y119.697 E9.72867
G1 X109.243 Y119.091 E9.77141
G1 X109.286 Y118.448 E9.81476
G1 X109.781 Y118.035 E9.85812
G1 X110.16 Y117.526 E9.90086
G1 X110.411 Y116.943 E9.94359
G1 X110.522 Y116.308 E9.98695
G1 X111.057 Y115.949 E10.03031
G1 X111.487 Y115.482 E10.07305
G1 X111.798 Y114.929 E10.11578
G1 X111.974 Y114.309 E10.15914
G1 X112.544 Y114.008 E10.2025
G1 X113.021 Y113.589 E10.24524
G1 X113.388 Y113.07 E10.28797
G1 X113.606 Y112.528 E10.32729
G1 X113.119 Y112.209 F7800
G1 F1800
G1 X113.364 Y111.964 E10.35057
G1 X113.494 Y111.945 E10.35943
G1 X113.966 Y111.755 E10.39362
G1 X114.38 Y111.462 E10.42782
G1 X114.716 Y111.08 E10.46202
G1 X114.953 Y110.631 E10.49622
G1 X114.986 Y110.504 E10.50507
G1 X115.255 Y110.286 E10.52835
G1 X115.386 Y110.28 E10.5372
G1 X115.875 Y110.141 E10.5714
G1 X116.318 Y109.892 E10.6056
G1 X116.692 Y109.548 E10.6398
G1 X116.975 Y109.126 E10.674
G1 X117.021 Y109.003 E10.68285
G1 X117.311 Y108.814 E10.70613
G1 X117.442 Y108.823 E10.71498
G1 X117.943 Y108.735 E10.74918
G1 X118.41 Y108.534 E10.78338
G1 X118.817 Y108.231 E10.81758
G1 X119.143 Y107.841 E10.85177
G1 X119.202 Y107.723 E10.86063
G1 X119.51 Y107.566 E10.88391
G1 X119.639 Y107.588 E10.89276
G1 X120.146 Y107.553 E10.92696
G1 X120.632 Y107.402 E10.96115
G1 X121.068 Y107.143 E10.99535
G1 X121.433 Y106.789 E11.02955
G1 X121.505 Y106.676 E11.03859
G1 X121.821 Y106.553 E11.06139
G1 X121.954 Y106.589 E11.07066
G1 X122.461 Y106.608 E11.10485
G1 X122.96 Y106.509 E11.13905
G1 X123.421 Y106.296 E11.17325
G1 X123.821 Y105.983 E11.20745
G1 X123.903 Y105.88 E11.2163
