; generated by SuperSlicer 2.3.57 on 2022-05-17 at 10:47:08 UTC

; 

; external perimeters extrusion width = 0.42mm
; perimeters extrusion width = 0.46mm
; infill extrusion width = 0.44mm
; solid infill extrusion width = 0.46mm
; top infill extrusion width = 0.44mm
; first layer extrusion width = 0.60mm

; object:{"name":"Alu-Leiter-Schuh-42x25_Einlage v3","id":"Alu-Leiter-Schuh-42x25_Einlage v3.stl id:0 copy 0","object_center":[122.500000,122.500000,0.000000],"boundingbox_center":[122.500000,122.500000,4.000000],"boundingbox_size":[42.000000,25.000000,8.000000]}
; Total objects to print: 1
M486 T1
; plater:{"center":[122.500000,122.500000,0.000000],"boundingbox_center":[122.500000,122.500000,4.000000],"boundingbox_size":[42.000000,25.000000,8.000000]}

M140 S60 ; set bed temperature
M104 S200 ; set temperature
;TYPE:Custom
G28 ; home all axes
G1 Z5 F5000 ; lift nozzle
M107
G21 ; set units to millimeters
G90 ; use absolute coordinates
M82 ; use absolute distances for extrusion
G92 E0
; Filament gcode
M109 S200 ; set temperature and wait for it to be reached
M190 S60 ; set bed temperature and wait for it to be reached
M107
;LAYER_CHANGE
;Z:0.3
;HEIGHT:0.3
G1 Z0.3 F7800
G1 E-2 F2400
G1 X98.439 Y105.566 F7800
G1 E0 F2400
;TYPE:Skirt
;WIDTH:0.44
G1 F1800
G1 X97.205 Y106.765 E0.08062
G1 X96.246 Y108.208 E0.1618
G1 X95.825 Y109.147 E0.20999
G1 X95.546 Y110.079 E0.25559
G1 X95.4 Y110.808 E0.29041
G1 X95.318 Y111.736 E0.33404
G1 X95.326 Y133.411 E1.34949
G1 X95.467 Y134.584 E1.40486
G1 X95.825 Y135.852 E1.46656
G1 X96.372 Y137.029 E1.5274
G1 X97.066 Y138.061 E1.58565
G1 X98.274 Y139.303 E1.66684
G1 X99.092 Y139.897 E1.71417
G1 X99.735 Y140.268 E1.74899
G1 X100.67 Y140.683 E1.79689
G1 X101.621 Y140.965 E1.84336
G1 X102.363 Y141.107 E1.87875
G1 X103.328 Y141.185 E1.92411
G1 X141.751 Y141.183 E3.72421
G1 X143.012 Y141.047 E3.78361
G1 X144.3 Y140.694 E3.84617
G1 X145.513 Y140.137 E3.90873
G1 X146.561 Y139.434 E3.96784
G1 X147.724 Y138.32 E4.0433
G1 X148.624 Y137.036 E4.11676
G1 X149.258 Y135.615 E4.18964
G1 X149.623 Y133.997 E4.26738
G1 X149.688 Y133.018 E4.31331
G1 X149.688 Y111.995 E5.29826
G1 X149.596 Y110.785 E5.35508
G1 X149.235 Y109.316 E5.42595
G1 X148.646 Y108.003 E5.49339
G1 X147.82 Y106.794 E5.56197
G1 X146.825 Y105.78 E5.62855
G1 X145.632 Y104.931 E5.69713
G1 X144.33 Y104.317 E5.76457
G1 X142.935 Y103.939 E5.8323
G1 X141.506 Y103.812 E5.89949
G1 X103.249 Y103.817 E7.69181
G1 X101.988 Y103.953 E7.75121
G1 X100.7 Y104.306 E7.81377
G1 X99.487 Y104.863 E7.87633
G1 X98.489 Y105.532 E7.93263
; INIT printing object Alu-Leiter-Schuh-42x25_Einlage v3.stl id:0 copy 0
G92 E0
G1 E-2 F2400
; printing object Alu-Leiter-Schuh-42x25_Einlage v3.stl id:0 copy 0
M486 S0
G1 X103.106 Y111.53 F7800
G1 E0 F2400
;TYPE:Internal perimeter
;WIDTH:0.604
G1 F1800
G1 X103.193 Y111.469 E0.0072
G1 X103.29 Y111.424 E0.01439
G1 X103.393 Y111.396 E0.02159
G1 X103.56 Y111.381 E0.03286
G1 X141.44 Y111.381 E2.58231
G1 X141.607 Y111.396 E2.59358
G1 X141.71 Y111.424 E2.60078
G1 X141.807 Y111.469 E2.60798
G1 X141.894 Y111.53 E2.61517
G1 X141.97 Y111.606 E2.62237
G1 X142.031 Y111.693 E2.62957
G1 X142.076 Y111.79 E2.63677
G1 X142.104 Y111.893 E2.64396
G1 X142.119 Y112.06 E2.65524
G1 X142.119 Y132.94 E4.06051
G1 X142.104 Y133.107 E4.07178
G1 X142.076 Y133.21 E4.07898
G1 X142.031 Y133.307 E4.08617
G1 X141.97 Y133.394 E4.09337
G1 X141.894 Y133.47 E4.10057
G1 X141.807 Y133.531 E4.10777
G1 X141.71 Y133.576 E4.11496
G1 X141.607 Y133.604 E4.12216
G1 X141.44 Y133.619 E4.13343
G1 X103.56 Y133.619 E6.68288
G1 X103.393 Y133.604 E6.69415
G1 X103.29 Y133.576 E6.70135
G1 X103.193 Y133.531 E6.70855
G1 X103.106 Y133.47 E6.71574
G1 X103.03 Y133.394 E6.72294
G1 X102.969 Y133.307 E6.73014
G1 X102.924 Y133.21 E6.73734
G1 X102.896 Y133.107 E6.74453
G1 X102.881 Y132.94 E6.7558
G1 X102.881 Y112.06 E8.16108
G1 X102.896 Y111.893 E8.17235
G1 X102.924 Y111.79 E8.17955
G1 X102.969 Y111.693 E8.18674
G1 X103.03 Y111.606 E8.19394
G1 X103.063 Y111.572 E8.1971
G1 X102.682 Y111.191 F7800
G1 F1800
G1 X102.757 Y111.115 E8.20432
G1 X102.922 Y111 E8.21787
G1 X103.105 Y110.914 E8.23142
G1 X103.299 Y110.862 E8.24497
G1 X103.537 Y110.842 E8.26101
G1 X141.463 Y110.842 E10.81363
G1 X141.701 Y110.862 E10.82966
G1 X141.895 Y110.914 E10.84321
G1 X142.078 Y111 E10.85676
G1 X142.243 Y111.115 E10.87032
G1 X142.385 Y111.257 E10.88387
G1 X142.5 Y111.422 E10.89742
G1 X142.586 Y111.605 E10.91097
G1 X142.638 Y111.799 E10.92453
G1 X142.658 Y112.037 E10.94056
G1 X142.658 Y132.963 E12.34901
G1 X142.638 Y133.201 E12.36504
G1 X142.586 Y133.395 E12.37859
G1 X142.5 Y133.578 E12.39215
G1 X142.385 Y133.743 E12.4057
G1 X142.243 Y133.885 E12.41925
G1 X142.078 Y134 E12.4328
G1 X141.895 Y134.086 E12.44635
G1 X141.701 Y134.138 E12.45991
G1 X141.463 Y134.158 E12.47594
G1 X103.537 Y134.158 E15.02856
G1 X103.299 Y134.138 E15.04459
G1 X103.105 Y134.086 E15.05815
G1 X102.922 Y134 E15.0717
G1 X102.757 Y133.885 E15.08525
G1 X102.615 Y133.743 E15.0988
G1 X102.5 Y133.578 E15.11236
G1 X102.414 Y133.395 E15.12591
G1 X102.362 Y133.201 E15.13946
G1 X102.342 Y132.963 E15.1555
G1 X102.342 Y112.037 E16.56394
G1 X102.362 Y111.799 E16.57997
G1 X102.414 Y111.605 E16.59353
G1 X102.5 Y111.422 E16.60708
G1 X102.615 Y111.257 E16.62063
G1 X102.639 Y111.233 E16.62293
G1 X102.258 Y110.852 F7800
;TYPE:External perimeter
G1 F1800
G1 X102.409 Y110.7 E16.63736
G1 X102.652 Y110.53 E16.65727
G1 X102.92 Y110.405 E16.67718
G1 X103.205 Y110.329 E16.69708
G1 X103.513 Y110.302 E16.71788
G1 X141.487 Y110.302 E19.27367
G1 X141.795 Y110.329 E19.29447
G1 X142.08 Y110.405 E19.31438
G1 X142.348 Y110.53 E19.33428
G1 X142.591 Y110.7 E19.35419
G1 X142.8 Y110.909 E19.3741
G1 X142.97 Y111.152 E19.394
G1 X143.095 Y111.42 E19.41391
G1 X143.171 Y111.705 E19.43382
G1 X143.198 Y112.013 E19.45462
G1 X143.198 Y132.987 E20.86623
G1 X143.171 Y133.295 E20.88703
G1 X143.095 Y133.58 E20.90694
G1 X142.97 Y133.848 E20.92685
G1 X142.8 Y134.091 E20.94675
G1 X142.591 Y134.3 E20.96666
G1 X142.348 Y134.47 E20.98657
G1 X142.08 Y134.595 E21.00647
G1 X141.795 Y134.671 E21.02638
G1 X141.487 Y134.698 E21.04718
G1 X103.513 Y134.698 E23.60297
G1 X103.205 Y134.671 E23.62377
G1 X102.92 Y134.595 E23.64367
G1 X102.652 Y134.47 E23.66358
G1 X102.409 Y134.3 E23.68349
G1 X102.2 Y134.091 E23.7034
G1 X102.03 Y133.848 E23.7233
G1 X101.905 Y133.58 E23.74321
G1 X101.829 Y133.295 E23.76312
G1 X101.802 Y132.987 E23.78392
G1 X101.802 Y112.013 E25.19553
G1 X101.829 Y111.705 E25.21633
G1 X101.905 Y111.42 E25.23624
G1 X102.03 Y111.152 E25.25614
G1 X102.2 Y110.909 E25.27605
G1 X102.215 Y110.894 E25.27749
;WIPE_START
G1 X102.465 Y110.907 F7800
;WIPE_END
G1 X141.957 Y112.167
;TYPE:Solid infill
;WIDTH:0.600702
G1 F1200
G1 X141.604 Y111.814 E25.31093
G1 X141.521 Y111.784 E25.31685
G1 X141.422 Y111.775 E25.32344
G1 X140.802 Y111.775 E25.36499
G1 X141.725 Y112.698 E25.45238
G1 X141.725 Y113.461 E25.50346
G1 X140.039 Y111.775 E25.66309
G1 X139.275 Y111.775 E25.71417
G1 X141.725 Y114.225 E25.94604
G1 X141.725 Y114.988 E25.99712
G1 X138.512 Y111.775 E26.30123
G1 X137.749 Y111.775 E26.35232
G1 X141.725 Y115.751 E26.72867
G1 X141.725 Y116.514 E26.77975
G1 X136.986 Y111.775 E27.22834
G1 X136.223 Y111.775 E27.27942
G1 X141.725 Y117.277 E27.80026
G1 X141.725 Y118.04 E27.85134
G1 X135.46 Y111.775 E28.44441
G1 X134.697 Y111.775 E28.4955
G1 X141.725 Y118.803 E29.16081
G1 X141.725 Y119.567 E29.21189
G1 X133.933 Y111.775 E29.94945
G1 X133.17 Y111.775 E30.00053
G1 X141.725 Y120.33 E30.81033
G1 X141.725 Y121.093 E30.86141
G1 X132.407 Y111.775 E31.74345
G1 X131.644 Y111.775 E31.79453
G1 X141.725 Y121.856 E32.74881
G1 X141.725 Y122.619 E32.79989
G1 X130.881 Y111.775 E33.82641
G1 X130.118 Y111.775 E33.87749
G1 X141.725 Y123.382 E34.97625
G1 X141.725 Y124.145 E35.02733
G1 X129.355 Y111.775 E36.19833
G1 X128.592 Y111.775 E36.24941
G1 X141.725 Y124.908 E37.49265
G1 X141.725 Y125.672 E37.54374
G1 X127.828 Y111.775 E38.85922
G1 X127.065 Y111.775 E38.9103
G1 X141.725 Y126.435 E40.29802
G1 X141.725 Y127.198 E40.3491
G1 X126.302 Y111.775 E41.80907
G1 X125.539 Y111.775 E41.86015
G1 X141.725 Y127.961 E43.39235
G1 X141.725 Y128.724 E43.44344
G1 X124.776 Y111.775 E45.04788
G1 X124.013 Y111.775 E45.09896
G1 X141.725 Y129.487 E46.77565
G1 X141.725 Y130.25 E46.82673
G1 X123.25 Y111.775 E48.57566
G1 X122.486 Y111.775 E48.62674
G1 X141.725 Y131.014 E50.44791
G1 X141.725 Y131.777 E50.49899
G1 X121.723 Y111.775 E52.3924
G1 X120.96 Y111.775 E52.44348
G1 X141.725 Y132.54 E54.40913
G1 X141.725 Y132.922 E54.43474
G1 X141.716 Y133.021 E54.44133
G1 X141.685 Y133.107 E54.44747
G1 X141.623 Y133.179 E54.45382
G1 X141.607 Y133.185 E54.455
G1 X120.197 Y111.775 E56.48171
G1 X119.434 Y111.775 E56.53279
G1 X140.884 Y133.225 E58.56328
G1 X140.12 Y133.225 E58.61437
G1 X118.671 Y111.775 E60.64486
G1 X117.908 Y111.775 E60.69594
G1 X139.357 Y133.225 E62.72644
G1 X138.594 Y133.225 E62.77752
G1 X117.144 Y111.775 E64.80801
G1 X116.381 Y111.775 E64.8591
G1 X137.831 Y133.225 E66.88959
G1 X137.068 Y133.225 E66.94067
G1 X115.618 Y111.775 E68.97117
G1 X114.855 Y111.775 E69.02225
G1 X136.305 Y133.225 E71.05274
G1 X135.542 Y133.225 E71.10383
G1 X114.092 Y111.775 E73.13432
G1 X113.329 Y111.775 E73.1854
G1 X134.779 Y133.225 E75.2159
G1 X134.015 Y133.225 E75.26698
G1 X112.566 Y111.775 E77.29747
G1 X111.803 Y111.775 E77.34856
G1 X133.252 Y133.225 E79.37905
G1 X132.489 Y133.225 E79.43013
G1 X111.039 Y111.775 E81.46063
G1 X110.276 Y111.775 E81.51171
G1 X131.726 Y133.225 E83.5422
G1 X130.963 Y133.225 E83.59329
G1 X109.513 Y111.775 E85.62378
G1 X108.75 Y111.775 E85.67486
G1 X130.2 Y133.225 E87.70536
G1 X129.437 Y133.225 E87.75644
G1 X107.987 Y111.775 E89.78693
G1 X107.224 Y111.775 E89.83802
G1 X128.673 Y133.225 E91.86851
G1 X127.91 Y133.225 E91.91959
G1 X106.461 Y111.775 E93.95009
G1 X105.697 Y111.775 E94.00117
G1 X127.147 Y133.225 E96.03166
G1 X126.384 Y133.225 E96.08275
G1 X104.934 Y111.775 E98.11324
G1 X104.171 Y111.775 E98.16432
G1 X125.621 Y133.225 E100.19482
G1 X124.858 Y133.225 E100.2459
G1 X103.433 Y111.8 E102.27399
G1 X103.393 Y111.815 E102.27685
G1 X103.323 Y111.874 E102.28299
G1 X103.284 Y111.979 E102.29052
G1 X103.275 Y112.078 E102.29711
G1 X103.275 Y112.405 E102.31906
G1 X124.095 Y133.225 E104.28989
G1 X123.331 Y133.225 E104.34097
G1 X103.275 Y113.169 E106.23956
G1 X103.275 Y113.932 E106.29064
G1 X122.568 Y133.225 E108.117
G1 X121.805 Y133.225 E108.16808
G1 X103.275 Y114.695 E109.92219
G1 X103.275 Y115.458 E109.97327
G1 X121.042 Y133.225 E111.65514
G1 X120.279 Y133.225 E111.70622
G1 X103.275 Y116.221 E113.31585
G1 X103.275 Y116.984 E113.36693
G1 X119.516 Y133.225 E114.90432
G1 X118.753 Y133.225 E114.9554
G1 X103.275 Y117.747 E116.42055
G1 X103.275 Y118.51 E116.47163
G1 X117.99 Y133.225 E117.86453
G1 X117.226 Y133.225 E117.91562
G1 X103.275 Y119.274 E119.23628
G1 X103.275 Y120.037 E119.28736
G1 X116.463 Y133.225 E120.53579
G1 X115.7 Y133.225 E120.58687
G1 X103.275 Y120.8 E121.76305
G1 X103.275 Y121.563 E121.81414
G1 X114.937 Y133.225 E122.91808
G1 X114.174 Y133.225 E122.96916
G1 X103.275 Y122.326 E124.00086
G1 X103.275 Y123.089 E124.05194
G1 X113.411 Y133.225 E125.01141
G1 X112.648 Y133.225 E125.06249
G1 X103.275 Y123.852 E125.94971
G1 X103.275 Y124.616 E126.00079
G1 X111.884 Y133.225 E126.81577
G1 X111.121 Y133.225 E126.86685
G1 X103.275 Y125.379 E127.60959
G1 X103.275 Y126.142 E127.66067
G1 X110.358 Y133.225 E128.33117
G1 X109.595 Y133.225 E128.38225
G1 X103.275 Y126.905 E128.98051
G1 X103.275 Y127.668 E129.03159
G1 X108.832 Y133.225 E129.55761
G1 X108.069 Y133.225 E129.60869
G1 X103.275 Y128.431 E130.06247
G1 X103.275 Y129.194 E130.11355
G1 X107.306 Y133.225 E130.49508
G1 X106.542 Y133.225 E130.54617
G1 X103.275 Y129.958 E130.85546
G1 X103.275 Y130.721 E130.90654
G1 X105.779 Y133.225 E131.1436
G1 X105.016 Y133.225 E131.19468
G1 X103.275 Y131.484 E131.35949
G1 X103.275 Y132.247 E131.41057
G1 X104.253 Y133.225 E131.50314
G1 X103.578 Y133.225 E131.54836
G1 X103.482 Y133.216 E131.55481
G1 X103.043 Y132.778 E131.59631
; INIT stop printing object Alu-Leiter-Schuh-42x25_Einlage v3.stl id:0 copy 0
;LAYER_CHANGE
;Z:0.5
;HEIGHT:0.2
; stop printing object Alu-Leiter-Schuh-42x25_Einlage v3.stl id:0 copy 0
M486 S-1
G1 Z0.5 F7800
M104 S195 ; set temperature
; INIT printing object Alu-Leiter-Schuh-42x25_Einlage v3.stl id:0 copy 0
; printing object Alu-Leiter-Schuh-42x25_Einlage v3.stl id:0 copy 0
M486 S0
G1 X102.592 Y133.33
;TYPE:Internal perimeter
;WIDTH:0.464
G1 F3600
G1 X102.549 Y133.168 E131.60221
G1 X102.53 Y132.955 E131.60968
G1 X102.53 Y112.045 E132.34181
G1 X102.549 Y111.832 E132.34928
G1 X102.592 Y111.67 E132.35518
G1 X102.664 Y111.517 E132.36107
G1 X102.76 Y111.379 E132.36697
G1 X102.879 Y111.26 E132.37286
G1 X103.017 Y111.164 E132.37876
G1 X103.17 Y111.092 E132.38465
G1 X103.332 Y111.049 E132.39055
G1 X103.545 Y111.03 E132.39802
G1 X141.455 Y111.03 E133.72536
G1 X141.668 Y111.049 E133.73284
G1 X141.83 Y111.092 E133.73874
G1 X141.983 Y111.163 E133.74463
G1 X142.121 Y111.26 E133.75053
G1 X142.24 Y111.379 E133.75642
G1 X142.337 Y111.517 E133.76232
G1 X142.408 Y111.67 E133.76821
G1 X142.451 Y111.832 E133.77411
G1 X142.47 Y112.045 E133.78158
G1 X142.47 Y132.955 E134.5137
G1 X142.451 Y133.168 E134.52118
G1 X142.408 Y133.33 E134.52707
G1 X142.337 Y133.483 E134.53297
G1 X142.24 Y133.621 E134.53886
G1 X142.121 Y133.74 E134.54476
G1 X141.983 Y133.836 E134.55066
G1 X141.83 Y133.908 E134.55655
G1 X141.668 Y133.951 E134.56245
G1 X141.455 Y133.97 E134.56992
G1 X103.545 Y133.97 E135.89726
G1 X103.332 Y133.951 E135.90474
G1 X103.17 Y133.908 E135.91063
G1 X103.017 Y133.836 E135.91653
G1 X102.879 Y133.74 E135.92242
G1 X102.76 Y133.621 E135.92832
G1 X102.664 Y133.483 E135.93421
G1 X102.618 Y133.385 E135.93801
G1 X102.236 Y133.563 F7800
G1 F3600
G1 X102.195 Y133.475 E135.9414
G1 X102.133 Y133.241 E135.94987
G1 X102.109 Y132.973 E135.95928
G1 X102.109 Y112.027 E136.69269
G1 X102.133 Y111.759 E136.7021
G1 X102.195 Y111.525 E136.71058
G1 X102.297 Y111.306 E136.71905
G1 X102.436 Y111.107 E136.72753
G1 X102.607 Y110.936 E136.736
G1 X102.806 Y110.797 E136.74448
G1 X103.025 Y110.695 E136.75295
G1 X103.259 Y110.633 E136.76143
G1 X103.527 Y110.609 E136.77083
G1 X141.473 Y110.609 E138.09946
G1 X141.741 Y110.633 E138.10887
G1 X141.975 Y110.695 E138.11735
G1 X142.194 Y110.797 E138.12582
G1 X142.393 Y110.936 E138.1343
G1 X142.564 Y111.107 E138.14277
G1 X142.703 Y111.306 E138.15125
G1 X142.805 Y111.525 E138.15972
G1 X142.867 Y111.759 E138.1682
G1 X142.891 Y112.027 E138.17761
G1 X142.891 Y132.973 E138.91101
G1 X142.867 Y133.241 E138.92042
G1 X142.805 Y133.475 E138.9289
G1 X142.703 Y133.694 E138.93737
G1 X142.564 Y133.893 E138.94585
G1 X142.393 Y134.064 E138.95432
G1 X142.194 Y134.203 E138.9628
G1 X141.975 Y134.305 E138.97127
G1 X141.741 Y134.367 E138.97975
G1 X141.473 Y134.391 E138.98916
G1 X103.527 Y134.391 E140.31779
G1 X103.259 Y134.367 E140.3272
G1 X103.025 Y134.305 E140.33567
G1 X102.806 Y134.203 E140.34414
G1 X102.607 Y134.064 E140.35262
G1 X102.436 Y133.893 E140.36109
G1 X102.297 Y133.694 E140.36957
G1 X102.261 Y133.617 E140.37255
G1 X101.9 Y133.786 F7800
;TYPE:External perimeter
;WIDTH:0.42
G1 F1800
G1 X101.819 Y133.612 E140.37857
G1 X101.738 Y133.311 E140.38834
G1 X101.71 Y132.991 E140.39841
G1 X101.71 Y112.009 E141.05628
G1 X101.738 Y111.689 E141.06634
G1 X101.819 Y111.388 E141.07612
G1 X101.951 Y111.105 E141.0859
G1 X102.129 Y110.85 E141.09568
G1 X102.35 Y110.629 E141.10546
G1 X102.605 Y110.451 E141.11524
G1 X102.888 Y110.319 E141.12502
G1 X103.189 Y110.238 E141.13479
G1 X103.509 Y110.21 E141.14486
G1 X141.491 Y110.21 E142.33575
G1 X141.811 Y110.238 E142.34582
G1 X142.112 Y110.319 E142.3556
G1 X142.395 Y110.451 E142.36538
G1 X142.65 Y110.629 E142.37515
G1 X142.871 Y110.85 E142.38493
G1 X143.049 Y111.105 E142.39471
G1 X143.181 Y111.388 E142.40449
G1 X143.262 Y111.689 E142.41427
G1 X143.29 Y112.009 E142.42434
G1 X143.29 Y132.991 E143.0822
G1 X143.262 Y133.311 E143.09227
G1 X143.181 Y133.612 E143.10205
G1 X143.049 Y133.895 E143.11183
G1 X142.871 Y134.15 E143.1216
G1 X142.65 Y134.371 E143.13138
G1 X142.395 Y134.549 E143.14116
G1 X142.112 Y134.681 E143.15094
