;FLAVOR:Marlin
;TIME:3384
;Filament used: 1.95293m
;Layer height: 0.2
;MINX:91.704
;MINY:94.206
;MINZ:0.3
;MAXX:158.296
;MAXY:160.791
;MAXZ:10.1
;Generated with Cura_SteamEngine 4.13.1
M140 S60
M105
M190 S60
M104 S240
M105
M109 S240
M82 ;absolute extrusion mode
G21 ;metric values
G90 ;absolute positioning
M82 ;set extruder to absolute mode
M107 ;start with the fan off
G28 X0 Y0 ;move X/Y to min endstops
M300 S1318 P266
G28 Z0 ;move Z to min endstops
G0 Z0.2
G92 E0 ;zero the extruded length
G1 X40 E25 F400 ; Extrude 25mm of filament in a 4cm line. Reduce speed (F) if you have a nozzle smaller than 0.4mm!
G92 E0 ;zero the extruded length again
G1 E-1 F500 ; Retract a little
G1 X80 F4000 ; Quickly wipe away from the filament line
M117 ; Printing…
G5
G92 E0
G92 E0
G1 F1500 E-2.5
;LAYER_COUNT:50
;LAYER:0
M107
G0 F3600 X102.178 Y103.247 Z0.3
;TYPE:SKIRT
G1 F1500 E0
G1 F600 X102.528 Y102.922 E0.02383
G1 X103.677 Y101.92 E0.09989
G1 X104.028 Y101.632 E0.12254
G1 X105.234 Y100.698 E0.19864
G1 X105.618 Y100.419 E0.22232
G1 X106.88 Y99.559 E0.29851
G1 X107.272 Y99.309 E0.32171
G1 X108.581 Y98.527 E0.39778
G1 X108.989 Y98.299 E0.4211
G1 X110.344 Y97.596 E0.49726
G1 X110.76 Y97.396 E0.52029
G1 X112.153 Y96.775 E0.59638
G1 X112.591 Y96.595 E0.62
G1 X114.021 Y96.059 E0.69619
G1 X114.459 Y95.91 E0.71927
G1 X115.917 Y95.46 E0.7954
G1 X116.37 Y95.335 E0.81884
G1 X117.851 Y94.974 E0.89489
G1 X118.303 Y94.878 E0.91795
G1 X119.805 Y94.605 E0.99411
G1 X120.269 Y94.535 E1.01752
G1 X121.783 Y94.353 E1.0936
G1 X122.249 Y94.311 E1.11694
G1 X123.772 Y94.22 E1.19306
G1 X124.237 Y94.206 E1.21627
G1 X125.763 Y94.206 E1.2924
G1 X126.228 Y94.22 E1.31561
G1 X127.751 Y94.311 E1.39173
G1 X128.217 Y94.353 E1.41507
G1 X129.731 Y94.535 E1.49115
G1 X130.19 Y94.604 E1.51431
G1 X131.692 Y94.876 E1.59046
G1 X132.154 Y94.974 E1.61402
G1 X133.635 Y95.336 E1.69009
G1 X134.083 Y95.46 E1.71328
G1 X135.541 Y95.91 E1.7894
G1 X135.979 Y96.059 E1.81248
G1 X137.409 Y96.595 E1.88867
G1 X137.847 Y96.775 E1.9123
G1 X139.24 Y97.396 E1.98839
G1 X139.656 Y97.596 E2.01142
G1 X141.011 Y98.299 E2.08758
G1 X141.419 Y98.527 E2.11089
G1 X142.728 Y99.309 E2.18697
G1 X143.119 Y99.559 E2.21012
G1 X144.38 Y100.418 E2.28624
G1 X144.765 Y100.697 E2.30996
G1 X145.971 Y101.631 E2.38606
G1 X146.322 Y101.919 E2.40872
G1 X147.471 Y102.921 E2.48477
G1 X147.821 Y103.246 E2.5086
G1 X148.907 Y104.317 E2.5847
G1 X149.227 Y104.652 E2.60781
G1 X150.248 Y105.786 E2.68394
G1 X150.55 Y106.142 E2.70723
G1 X151.502 Y107.336 E2.78342
G1 X151.778 Y107.705 E2.80641
G1 X152.657 Y108.952 E2.88252
G1 X152.918 Y109.347 E2.90614
G1 X153.719 Y110.644 E2.98219
G1 X153.951 Y111.046 E3.00535
G1 X154.675 Y112.391 E3.08156
G1 X154.886 Y112.812 E3.10505
G1 X155.526 Y114.195 E3.18108
G1 X155.707 Y114.618 E3.20403
G1 X156.265 Y116.038 E3.28015
G1 X156.422 Y116.478 E3.30346
G1 X156.894 Y117.929 E3.37958
G1 X157.026 Y118.381 E3.40308
G1 X157.41 Y119.859 E3.47926
G1 X157.514 Y120.312 E3.50245
G1 X157.809 Y121.809 E3.57857
G1 X157.886 Y122.273 E3.60204
G1 X158.09 Y123.784 E3.6781
G1 X158.138 Y124.245 E3.70123
G1 X158.252 Y125.766 E3.77732
G1 X158.273 Y126.231 E3.80055
G1 X158.296 Y127.757 E3.87669
G1 X158.289 Y128.223 E3.89994
G1 X158.221 Y129.747 E3.97605
G1 X158.186 Y130.217 E3.99956
G1 X158.026 Y131.735 E4.07571
G1 X157.965 Y132.189 E4.09857
G1 X157.716 Y133.695 E4.17472
G1 X157.624 Y134.163 E4.19852
G1 X157.284 Y135.649 E4.27457
G1 X157.167 Y136.098 E4.29772
G1 X156.739 Y137.562 E4.37382
G1 X156.595 Y138.005 E4.39706
G1 X156.08 Y139.442 E4.47321
G1 X155.91 Y139.875 E4.49642
G1 X155.311 Y141.277 E4.57248
G1 X155.116 Y141.698 E4.59563
G1 X154.434 Y143.063 E4.67176
G1 X154.209 Y143.48 E4.6954
G1 X153.445 Y144.802 E4.77157
G1 X153.204 Y145.193 E4.79449
G1 X152.364 Y146.467 E4.87062
G1 X152.093 Y146.852 E4.89411
G1 X151.179 Y148.071 E4.97012
G1 X150.887 Y148.437 E4.99348
G1 X149.9 Y149.601 E5.06962
G1 X149.588 Y149.947 E5.09286
G1 X148.533 Y151.05 E5.16901
G1 X148.201 Y151.377 E5.19226
G1 X147.081 Y152.416 E5.26848
G1 X146.734 Y152.72 E5.29149
G1 X145.557 Y153.689 E5.36756
G1 X145.182 Y153.979 E5.39121
G1 X143.948 Y154.875 E5.46729
G1 X143.564 Y155.137 E5.49048
G1 X142.277 Y155.959 E5.56667
G1 X141.878 Y156.197 E5.58985
G1 X140.546 Y156.94 E5.66594
G1 X140.127 Y157.157 E5.68948
G1 X138.753 Y157.818 E5.76555
G1 X138.334 Y158.005 E5.78844
G1 X136.921 Y158.585 E5.86464
G1 X136.476 Y158.752 E5.88836
G1 X135.033 Y159.244 E5.96442
G1 X134.589 Y159.38 E5.98758
G1 X133.12 Y159.785 E6.06361
G1 X132.671 Y159.895 E6.08667
G1 X131.177 Y160.213 E6.16288
G1 X130.718 Y160.296 E6.18615
G1 X129.209 Y160.524 E6.26229
G1 X128.744 Y160.581 E6.28566
G1 X127.224 Y160.718 E6.3618
G1 X126.754 Y160.746 E6.38529
G1 X125.23 Y160.791 E6.46136
G1 X124.77 Y160.791 E6.4843
G1 X123.246 Y160.746 E6.56037
G1 X122.776 Y160.718 E6.58386
G1 X121.256 Y160.581 E6.66
G1 X120.791 Y160.524 E6.68337
G1 X119.282 Y160.296 E6.75951
G1 X118.828 Y160.214 E6.78253
G1 X117.334 Y159.897 E6.85872
G1 X116.875 Y159.785 E6.8823
G1 X115.406 Y159.379 E6.95833
G1 X114.962 Y159.242 E6.98151
G1 X113.519 Y158.749 E7.05759
G1 X113.083 Y158.586 E7.08081
G1 X111.67 Y158.007 E7.157
G1 X111.247 Y157.818 E7.18011
G1 X109.873 Y157.157 E7.25618
G1 X109.454 Y156.94 E7.27972
G1 X108.122 Y156.197 E7.35582
G1 X107.723 Y155.959 E7.37899
G1 X106.436 Y155.137 E7.45518
G1 X106.052 Y154.875 E7.47837
G1 X104.818 Y153.979 E7.55446
G1 X104.443 Y153.689 E7.57811
G1 X103.266 Y152.72 E7.65417
G1 X102.922 Y152.419 E7.67697
G1 X101.802 Y151.381 E7.75316
G1 X101.465 Y151.049 E7.77676
G1 X100.41 Y149.945 E7.85294
G1 X100.1 Y149.601 E7.87604
G1 X99.113 Y148.437 E7.95218
G1 X98.821 Y148.071 E7.97554
G1 X97.907 Y146.852 E8.05155
G1 X97.636 Y146.467 E8.07504
G1 X96.796 Y145.193 E8.15118
G1 X96.555 Y144.802 E8.17409
G1 X95.791 Y143.48 E8.25027
G1 X95.566 Y143.063 E8.27391
G1 X94.884 Y141.698 E8.35003
G1 X94.689 Y141.277 E8.37318
G1 X94.09 Y139.875 E8.44924
G1 X93.92 Y139.442 E8.47245
G1 X93.405 Y138.005 E8.54861
G1 X93.261 Y137.562 E8.57185
G1 X92.833 Y136.098 E8.64794
G1 X92.715 Y135.644 E8.67135
G1 X92.376 Y134.158 E8.74739
G1 X92.286 Y133.7 E8.77068
G1 X92.036 Y132.194 E8.84684
G1 X91.974 Y131.735 E8.86995
G1 X91.814 Y130.217 E8.9461
G1 X91.779 Y129.747 E8.96961
G1 X91.711 Y128.224 E9.04567
G1 X91.704 Y127.758 E9.06892
G1 X91.727 Y126.232 E9.14506
G1 X91.748 Y125.767 E9.16829
G1 X91.862 Y124.247 E9.24433
G1 X91.91 Y123.787 E9.26741
G1 X92.114 Y122.275 E9.34352
G1 X92.19 Y121.816 E9.36674
G1 X92.484 Y120.318 E9.4429
G1 X92.59 Y119.853 E9.46669
G1 X92.975 Y118.376 E9.54284
G1 X93.106 Y117.93 E9.56603
G1 X93.578 Y116.479 E9.64216
G1 X93.735 Y116.041 E9.66537
G1 X94.293 Y114.62 E9.74153
G1 X94.474 Y114.195 E9.76458
G1 X95.114 Y112.812 E9.84061
G1 X95.325 Y112.391 E9.8641
G1 X96.048 Y111.048 E9.9402
G1 X96.278 Y110.649 E9.96317
G1 X97.079 Y109.351 E10.03927
G1 X97.342 Y108.952 E10.06311
G1 X98.222 Y107.704 E10.1393
G1 X98.498 Y107.337 E10.1622
G1 X99.449 Y106.144 E10.23832
G1 X99.751 Y105.787 E10.26165
G1 X100.772 Y104.653 E10.33778
G1 X101.092 Y104.318 E10.36089
G1 X102.178 Y103.247 E10.43699
G0 F3600 X102.459 Y103.532
G1 F600 X102.791 Y103.224 E10.45958
G1 X103.94 Y102.222 E10.53564
G1 X104.273 Y101.948 E10.55715
G1 X105.479 Y101.014 E10.63325
G1 X105.843 Y100.75 E10.65569
G1 X107.105 Y99.89 E10.73188
G1 X107.477 Y99.652 E10.75391
G1 X108.786 Y98.87 E10.82998
G1 X109.173 Y98.654 E10.8521
G1 X110.528 Y97.951 E10.92825
G1 X110.923 Y97.761 E10.95012
G1 X112.316 Y97.14 E11.02621
G1 X112.732 Y96.97 E11.04863
G1 X114.162 Y96.434 E11.12482
G1 X114.577 Y96.292 E11.1467
G1 X116.035 Y95.842 E11.22283
G1 X116.465 Y95.724 E11.24508
G1 X117.946 Y95.363 E11.32113
G1 X118.375 Y95.271 E11.34302
G1 X119.877 Y94.998 E11.41918
G1 X120.317 Y94.932 E11.44138
G1 X121.831 Y94.75 E11.51745
G1 X122.273 Y94.71 E11.5396
G1 X123.796 Y94.619 E11.61571
G1 X124.237 Y94.606 E11.63773
G1 X125.763 Y94.606 E11.71386
G1 X126.204 Y94.619 E11.73587
G1 X127.727 Y94.71 E11.81199
G1 X128.169 Y94.75 E11.83413
G1 X129.683 Y94.932 E11.91021
G1 X130.119 Y94.997 E11.9322
G1 X131.621 Y95.269 E12.00835
G1 X132.059 Y95.363 E12.0307
G1 X133.54 Y95.725 E12.10676
G1 X133.965 Y95.842 E12.12876
G1 X135.423 Y96.292 E12.20488
G1 X135.838 Y96.434 E12.22677
G1 X137.268 Y96.97 E12.30296
G1 X137.684 Y97.14 E12.32538
G1 X139.077 Y97.761 E12.40147
G1 X139.472 Y97.951 E12.42333
G1 X140.827 Y98.654 E12.49949
G1 X141.214 Y98.87 E12.5216
G1 X142.523 Y99.652 E12.59768
G1 X142.894 Y99.889 E12.61964
G1 X144.155 Y100.748 E12.69576
G1 X144.52 Y101.013 E12.71826
G1 X145.726 Y101.947 E12.79437
G1 X146.059 Y102.221 E12.81588
G1 X147.208 Y103.223 E12.89194
G1 X147.54 Y103.531 E12.91453
G1 X148.626 Y104.602 E12.99063
G1 X148.929 Y104.92 E13.01254
G1 X149.95 Y106.054 E13.08867
G1 X150.237 Y106.392 E13.11079
G1 X151.189 Y107.586 E13.18698
G1 X151.451 Y107.936 E13.20879
G1 X152.33 Y109.183 E13.28491
G1 X152.578 Y109.558 E13.30734
G1 X153.379 Y110.855 E13.38339
G1 X153.599 Y111.236 E13.40534
G1 X154.323 Y112.581 E13.48154
G1 X154.523 Y112.98 E13.50381
G1 X155.163 Y114.363 E13.57984
G1 X155.334 Y114.765 E13.60163
G1 X155.892 Y116.185 E13.67775
G1 X156.042 Y116.602 E13.69986
G1 X156.514 Y118.053 E13.77599
G1 X156.639 Y118.481 E13.79823
G1 X157.023 Y119.959 E13.87442
G1 X157.121 Y120.389 E13.89642
G1 X157.416 Y121.886 E13.97254
G1 X157.489 Y122.327 E13.99484
G1 X157.693 Y123.838 E14.07091
G1 X157.739 Y124.275 E14.09283
G1 X157.853 Y125.796 E14.16893
G1 X157.873 Y126.237 E14.19095
G1 X157.896 Y127.763 E14.26709
G1 X157.89 Y128.205 E14.28915
G1 X157.822 Y129.729 E14.36526
G1 X157.788 Y130.175 E14.38757
G1 X157.628 Y131.693 E14.46372
G1 X157.57 Y132.124 E14.48542
G1 X157.321 Y133.63 E14.56158
G1 X157.234 Y134.073 E14.5841
G1 X156.894 Y135.559 E14.66015
G1 X156.783 Y135.985 E14.68211
G1 X156.355 Y137.449 E14.75821
G1 X156.218 Y137.87 E14.7803
G1 X155.703 Y139.307 E14.85646
G1 X155.542 Y139.717 E14.87843
G1 X154.943 Y141.119 E14.95449
G1 X154.758 Y141.519 E14.97648
G1 X154.076 Y142.884 E15.05261
G1 X153.863 Y143.28 E15.07504
G1 X153.099 Y144.602 E15.15122
G1 X152.87 Y144.972 E15.17293
G1 X152.03 Y146.246 E15.24906
G1 X151.773 Y146.612 E15.27137
G1 X150.859 Y147.831 E15.34738
G1 X150.582 Y148.178 E15.36954
G1 X149.595 Y149.342 E15.44567
G1 X149.299 Y149.671 E15.46775
G1 X148.244 Y150.774 E15.5439
G1 X147.929 Y151.084 E15.56595
G1 X146.809 Y152.123 E15.64217
G1 X146.479 Y152.411 E15.66402
G1 X145.302 Y153.38 E15.74008
G1 X144.947 Y153.655 E15.76249
G1 X143.713 Y154.551 E15.83857
G1 X143.348 Y154.8 E15.86061
G1 X142.061 Y155.622 E15.9368
G1 X141.683 Y155.848 E15.95877
G1 X140.351 Y156.591 E16.03486
G1 X139.954 Y156.796 E16.05715
G1 X138.58 Y157.457 E16.13322
G1 X138.182 Y157.635 E16.15498
G1 X136.769 Y158.215 E16.23118
G1 X136.347 Y158.373 E16.25366
G1 X134.904 Y158.865 E16.32972
G1 X134.483 Y158.995 E16.3517
G1 X133.014 Y159.4 E16.42773
G1 X132.588 Y159.504 E16.4496
G1 X131.094 Y159.822 E16.52581
G1 X130.659 Y159.901 E16.54787
G1 X129.15 Y160.129 E16.624
G1 X128.708 Y160.182 E16.64621
G1 X127.188 Y160.319 E16.72235
G1 X126.742 Y160.346 E16.74465
G1 X125.218 Y160.391 E16.82071
G1 X124.782 Y160.391 E16.84246
G1 X123.258 Y160.346 E16.91853
G1 X122.812 Y160.319 E16.94082
G1 X121.292 Y160.182 E17.01696
G1 X120.85 Y160.129 E17.03917
G1 X119.341 Y159.901 E17.11531
G1 X118.911 Y159.823 E17.13711
G1 X117.417 Y159.506 E17.21331
G1 X116.982 Y159.4 E17.23565
G1 X115.513 Y158.994 E17.31168
G1 X115.092 Y158.864 E17.33366
G1 X113.649 Y158.371 E17.40974
G1 X113.235 Y158.215 E17.43181
G1 X111.822 Y157.636 E17.508
G1 X111.42 Y157.457 E17.52995
G1 X110.046 Y156.796 E17.60602
G1 X109.649 Y156.591 E17.62831
G1 X108.317 Y155.848 E17.7044
G1 X107.939 Y155.622 E17.72638
G1 X106.652 Y154.8 E17.80256
G1 X106.287 Y154.551 E17.82461
G1 X105.053 Y153.655 E17.90069
G1 X104.698 Y153.38 E17.92309
G1 X103.521 Y152.411 E17.99915
G1 X103.194 Y152.126 E18.02079
G1 X102.074 Y151.088 E18.09698
G1 X101.754 Y150.773 E18.11938
G1 X100.699 Y149.669 E18.19557
G1 X100.405 Y149.342 E18.2175
G1 X99.418 Y148.178 E18.29364
G1 X99.141 Y147.831 E18.31579
G1 X98.227 Y146.612 E18.39181
G1 X97.97 Y146.246 E18.41412
G1 X97.13 Y144.972 E18.49025
G1 X96.901 Y144.602 E18.51196
G1 X96.137 Y143.28 E18.58814
G1 X95.924 Y142.884 E18.61057
G1 X95.242 Y141.519 E18.6867
G1 X95.057 Y141.119 E18.70868
G1 X94.458 Y139.717 E18.78475
G1 X94.297 Y139.307 E18.80672
G1 X93.782 Y137.87 E18.88288
G1 X93.645 Y137.449 E18.90497
G1 X93.217 Y135.985 E18.98106
G1 X93.105 Y135.555 E19.00323
G1 X92.766 Y134.069 E19.07927
G1 X92.681 Y133.635 E19.10134
G1 X92.431 Y132.129 E19.1775
G1 X92.372 Y131.693 E19.19945
G1 X92.212 Y130.175 E19.2756
G1 X92.178 Y129.729 E19.29792
G1 X92.11 Y128.206 E19.37398
G1 X92.104 Y127.764 E19.39603
G1 X92.127 Y126.238 E19.47217
G1 X92.147 Y125.797 E19.4942
G1 X92.261 Y124.277 E19.57024
G1 X92.306 Y123.841 E19.59211
G1 X92.51 Y122.329 E19.66823
G1 X92.583 Y121.893 E19.69028
G1 X92.877 Y120.395 E19.76644
G1 X92.977 Y119.953 E19.78905
G1 X93.362 Y118.476 E19.8652
G1 X93.486 Y118.054 E19.88715
G1 X93.958 Y116.603 E19.96327
G1 X94.107 Y116.187 E19.98532
G1 X94.665 Y114.766 E20.06148
G1 X94.837 Y114.363 E20.08334
G1 X95.477 Y112.98 E20.15937
G1 X95.677 Y112.58 E20.18168
G1 X96.4 Y111.237 E20.25778
G1 X96.619 Y110.859 E20.27957
G1 X97.42 Y109.561 E20.35567
G1 X97.669 Y109.183 E20.37825
G1 X98.549 Y107.935 E20.45443
G1 X98.811 Y107.586 E20.4762
G1 X99.762 Y106.393 E20.55232
G1 X100.049 Y106.055 E20.57444
G1 X101.07 Y104.921 E20.65057
G1 X101.373 Y104.603 E20.67248
G1 X102.459 Y103.532 E20.74858
G0 F3600 X102.74 Y103.817
G1 F600 X103.054 Y103.525 E20.76997
G1 X104.203 Y102.523 E20.84603
G1 X104.518 Y102.265 E20.86635
G1 X105.724 Y101.331 E20.94245
G1 X106.068 Y101.08 E20.96369
G1 X107.33 Y100.22 E21.03988
G1 X107.682 Y99.996 E21.0607
G1 X108.991 Y99.214 E21.13677
G1 X109.357 Y99.009 E21.1577
G1 X110.712 Y98.306 E21.23386
G1 X111.086 Y98.127 E21.25454
G1 X112.479 Y97.506 E21.33063
G1 X112.872 Y97.344 E21.35184
G1 X114.302 Y96.808 E21.42803
G1 X114.695 Y96.674 E21.44875
G1 X116.153 Y96.224 E21.52487
G1 X116.559 Y96.112 E21.54588
G1 X118.04 Y95.751 E21.62194
G1 X118.446 Y95.665 E21.64264
G1 X119.948 Y95.392 E21.7188
G1 X120.365 Y95.329 E21.73984
G1 X121.879 Y95.147 E21.81592
G1 X122.296 Y95.109 E21.83681
G1 X123.819 Y95.018 E21.91293
G1 X124.237 Y95.006 E21.93379
G1 X125.763 Y95.006 E22.00992
G1 X126.181 Y95.018 E22.03079
G1 X127.704 Y95.109 E22.10691
G1 X128.121 Y95.147 E22.1278
G1 X129.635 Y95.329 E22.20387
G1 X130.047 Y95.391 E22.22466
G1 X131.549 Y95.663 E22.30081
G1 X131.964 Y95.751 E22.32198
G1 X133.445 Y96.113 E22.39804
G1 X133.847 Y96.224 E22.41885
G1 X135.305 Y96.674 E22.49497
G1 X135.698 Y96.808 E22.51569
G1 X137.128 Y97.344 E22.59188
G1 X137.521 Y97.506 E22.61309
G1 X138.914 Y98.127 E22.68918
G1 X139.288 Y98.306 E22.70986
G1 X140.643 Y99.009 E22.78602
G1 X141.009 Y99.214 E22.80695
G1 X142.318 Y99.996 E22.88302
G1 X142.669 Y100.22 E22.90379
G1 X143.93 Y101.079 E22.97992
G1 X144.275 Y101.33 E23.0012
G1 X145.481 Y102.264 E23.0773
G1 X145.796 Y102.522 E23.09762
G1 X146.945 Y103.524 E23.17368
G1 X147.259 Y103.816 E23.19507
G1 X148.345 Y104.887 E23.27116
G1 X148.632 Y105.187 E23.29188
G1 X149.653 Y106.321 E23.36801
G1 X149.924 Y106.641 E23.38893
G1 X150.876 Y107.835 E23.46511
G1 X151.124 Y108.166 E23.48575
G1 X152.003 Y109.413 E23.56186
G1 X152.238 Y109.768 E23.5831
G1 X153.039 Y111.065 E23.65916
G1 X153.247 Y111.425 E23.6799
G1 X153.971 Y112.77 E23.7561
G1 X154.16 Y113.148 E23.77719
G1 X154.8 Y114.531 E23.85322
G1 X154.962 Y114.911 E23.87383
G1 X155.52 Y116.331 E23.94994
G1 X155.662 Y116.726 E23.97088
G1 X156.134 Y118.177 E24.04701
G1 X156.252 Y118.582 E24.06805
G1 X156.636 Y120.06 E24.14424
G1 X156.729 Y120.467 E24.16507
G1 X157.024 Y121.964 E24.24119
G1 X157.093 Y122.38 E24.26223
G1 X157.297 Y123.891 E24.3383
G1 X157.34 Y124.305 E24.35906
G1 X157.454 Y125.826 E24.43516
G1 X157.473 Y126.244 E24.45603
G1 X157.496 Y127.77 E24.53218
G1 X157.49 Y128.187 E24.55298
G1 X157.422 Y129.711 E24.62909
G1 X157.39 Y130.133 E24.6502
G1 X157.23 Y131.651 E24.72636
G1 X157.175 Y132.059 E24.7469
G1 X156.926 Y133.565 E24.82305
