;FLAVOR:Marlin
;TIME:3670
;Filament used: 2.14462m
;Layer height: 0.2
;MINX:30.56
;MINY:129.676
;MINZ:0.3
;MAXX:97.152
;MAXY:196.26
;MAXZ:10.7
;Generated with Cura_SteamEngine 4.13.1
M140 S60
M105
M190 S60
M104 S240
M105
M109 S240
M82 ;absolute extrusion mode
G21 ;metric values
G90 ;absolute positioning
M82 ;set extruder to absolute mode
M107 ;start with the fan off
G28 X0 Y0 ;move X/Y to min endstops
M300 S1318 P266
G28 Z0 ;move Z to min endstops
G0 Z0.2
G92 E0 ;zero the extruded length
G1 X40 E25 F400 ; Extrude 25mm of filament in a 4cm line. Reduce speed (F) if you have a nozzle smaller than 0.4mm!
G92 E0 ;zero the extruded length again
G1 E-1 F500 ; Retract a little
G1 X80 F4000 ; Quickly wipe away from the filament line
M117 ; Printing…
G5
G92 E0
G92 E0
G1 F1500 E-2.5
;LAYER_COUNT:53
;LAYER:0
M107
G0 F3600 X51.447 Y132.065 Z0.3
;TYPE:SKIRT
G1 F1500 E0
G1 F600 X52.877 Y131.529 E0.07619
G1 X53.315 Y131.38 E0.09927
G1 X54.773 Y130.93 E0.1754
G1 X55.221 Y130.806 E0.19859
G1 X56.702 Y130.444 E0.27465
G1 X57.164 Y130.346 E0.29821
G1 X58.666 Y130.074 E0.37437
G1 X59.125 Y130.005 E0.39752
G1 X60.639 Y129.823 E0.4736
G1 X61.105 Y129.781 E0.49694
G1 X62.628 Y129.69 E0.57306
G1 X63.093 Y129.676 E0.59627
G1 X64.619 Y129.676 E0.6724
G1 X65.084 Y129.69 E0.69561
G1 X66.607 Y129.781 E0.77173
G1 X67.074 Y129.823 E0.79513
G1 X68.587 Y130.005 E0.87115
G1 X69.039 Y130.073 E0.89396
G1 X70.542 Y130.344 E0.97015
G1 X71.015 Y130.444 E0.99427
G1 X72.496 Y130.807 E1.07035
G1 X72.939 Y130.93 E1.09328
G1 X74.397 Y131.38 E1.16941
G1 X74.835 Y131.529 E1.19249
G1 X76.265 Y132.065 E1.26868
G1 X76.699 Y132.243 E1.29208
G1 X78.092 Y132.863 E1.36815
G1 X78.516 Y133.067 E1.39163
G1 X79.871 Y133.771 E1.46781
G1 X80.275 Y133.997 E1.4909
G1 X81.584 Y134.779 E1.56698
G1 X81.978 Y135.03 E1.59028
G1 X83.238 Y135.889 E1.66636
G1 X83.614 Y136.163 E1.68957
G1 X84.821 Y137.096 E1.76568
G1 X85.18 Y137.391 E1.78887
G1 X86.329 Y138.394 E1.86496
G1 X86.677 Y138.716 E1.88861
G1 X87.763 Y139.787 E1.96471
G1 X88.083 Y140.122 E1.98782
G1 X89.104 Y141.256 E2.06395
G1 X89.406 Y141.612 E2.08724
G1 X90.358 Y142.806 E2.16343
G1 X90.634 Y143.175 E2.18642
G1 X91.513 Y144.422 E2.26253
G1 X91.774 Y144.817 E2.28615
G1 X92.575 Y146.114 E2.3622
G1 X92.807 Y146.516 E2.38536
G1 X93.531 Y147.861 E2.46157
G1 X93.742 Y148.282 E2.48506
G1 X94.382 Y149.665 E2.56109
G1 X94.563 Y150.088 E2.58404
G1 X95.121 Y151.508 E2.66016
G1 X95.278 Y151.948 E2.68347
G1 X95.75 Y153.399 E2.75959
G1 X95.882 Y153.851 E2.78308
G1 X96.266 Y155.329 E2.85927
G1 X96.371 Y155.787 E2.88271
G1 X96.665 Y157.284 E2.95882
G1 X96.74 Y157.738 E2.98178
G1 X96.945 Y159.249 E3.05786
G1 X96.994 Y159.715 E3.08123
G1 X97.108 Y161.236 E3.15733
G1 X97.129 Y161.701 E3.18055
G1 X97.152 Y163.227 E3.25669
G1 X97.145 Y163.693 E3.27994
G1 X97.077 Y165.217 E3.35605
G1 X97.042 Y165.687 E3.37957
G1 X96.882 Y167.205 E3.45572
G1 X96.821 Y167.659 E3.47857
G1 X96.572 Y169.165 E3.55473
G1 X96.48 Y169.633 E3.57852
G1 X96.14 Y171.119 E3.65458
G1 X96.023 Y171.568 E3.67772
G1 X95.595 Y173.032 E3.75382
G1 X95.451 Y173.475 E3.77706
G1 X94.936 Y174.912 E3.85322
G1 X94.766 Y175.345 E3.87643
G1 X94.167 Y176.747 E3.95249
G1 X93.972 Y177.168 E3.97564
G1 X93.29 Y178.533 E4.05176
G1 X93.065 Y178.95 E4.0754
G1 X92.301 Y180.272 E4.15158
G1 X92.058 Y180.665 E4.17463
G1 X91.218 Y181.938 E4.25072
G1 X90.95 Y182.319 E4.27396
G1 X90.036 Y183.539 E4.35001
G1 X89.743 Y183.907 E4.37348
G1 X88.756 Y185.071 E4.44962
G1 X88.444 Y185.417 E4.47286
G1 X87.389 Y186.52 E4.54901
G1 X87.054 Y186.85 E4.57247
G1 X85.934 Y187.888 E4.64866
G1 X85.59 Y188.189 E4.67146
G1 X84.413 Y189.158 E4.74752
G1 X84.041 Y189.445 E4.77096
G1 X82.807 Y190.342 E4.84707
G1 X82.42 Y190.607 E4.87047
G1 X81.133 Y191.429 E4.94666
G1 X80.734 Y191.667 E4.96984
G1 X79.402 Y192.41 E5.04593
G1 X78.979 Y192.629 E5.0697
G1 X77.605 Y193.289 E5.14575
G1 X77.194 Y193.472 E5.16819
G1 X75.781 Y194.053 E5.24441
G1 X75.332 Y194.222 E5.26835
G1 X73.889 Y194.714 E5.34441
G1 X73.444 Y194.851 E5.36764
G1 X71.974 Y195.256 E5.44371
G1 X71.527 Y195.365 E5.46666
G1 X70.034 Y195.683 E5.54282
G1 X69.574 Y195.767 E5.56615
G1 X68.064 Y195.995 E5.64234
G1 X67.595 Y196.051 E5.6659
G1 X66.076 Y196.187 E5.74199
G1 X65.615 Y196.214 E5.76503
G1 X64.091 Y196.26 E5.84109
G1 X63.621 Y196.26 E5.86454
G1 X62.097 Y196.214 E5.94061
G1 X61.637 Y196.187 E5.9636
G1 X60.117 Y196.051 E6.03974
G1 X59.647 Y195.994 E6.06336
G1 X58.138 Y195.766 E6.13949
G1 X57.684 Y195.684 E6.16251
G1 X56.19 Y195.367 E6.23871
G1 X55.731 Y195.255 E6.26228
G1 X54.262 Y194.849 E6.33831
G1 X53.818 Y194.712 E6.3615
G1 X52.375 Y194.219 E6.43757
G1 X51.935 Y194.054 E6.46102
G1 X50.522 Y193.474 E6.53722
G1 X50.107 Y193.289 E6.55989
G1 X48.733 Y192.629 E6.63594
G1 X48.31 Y192.41 E6.6597
G1 X46.978 Y191.667 E6.73579
G1 X46.579 Y191.429 E6.75897
G1 X45.292 Y190.607 E6.83516
G1 X44.905 Y190.342 E6.85856
G1 X43.671 Y189.445 E6.93467
G1 X43.302 Y189.16 E6.95793
G1 X42.124 Y188.191 E7.03403
G1 X41.777 Y187.888 E7.05701
G1 X40.658 Y186.851 E7.13313
G1 X40.321 Y186.519 E7.15673
G1 X39.266 Y185.415 E7.23291
G1 X38.956 Y185.071 E7.25602
G1 X37.969 Y183.907 E7.33216
G1 X37.676 Y183.539 E7.35562
G1 X36.762 Y182.319 E7.43168
G1 X36.494 Y181.938 E7.45492
G1 X35.654 Y180.665 E7.53101
G1 X35.411 Y180.272 E7.55406
G1 X34.647 Y178.95 E7.63024
G1 X34.422 Y178.533 E7.65387
G1 X33.74 Y177.168 E7.73
G1 X33.545 Y176.747 E7.75315
G1 X32.946 Y175.345 E7.82921
G1 X32.776 Y174.912 E7.85242
G1 X32.261 Y173.475 E7.92858
G1 X32.117 Y173.032 E7.95182
G1 X31.689 Y171.568 E8.02791
G1 X31.571 Y171.114 E8.05132
G1 X31.232 Y169.628 E8.12736
G1 X31.142 Y169.17 E8.15064
G1 X30.892 Y167.664 E8.22681
G1 X30.83 Y167.205 E8.24991
G1 X30.67 Y165.687 E8.32607
G1 X30.635 Y165.217 E8.34958
G1 X30.567 Y163.694 E8.42564
G1 X30.56 Y163.228 E8.44889
G1 X30.583 Y161.702 E8.52503
G1 X30.604 Y161.237 E8.54825
G1 X30.718 Y159.717 E8.6243
G1 X30.766 Y159.257 E8.64737
G1 X30.97 Y157.745 E8.72349
G1 X31.046 Y157.286 E8.7467
G1 X31.34 Y155.788 E8.82286
G1 X31.446 Y155.323 E8.84666
G1 X31.831 Y153.846 E8.92281
G1 X31.962 Y153.4 E8.946
G1 X32.434 Y151.949 E9.02212
G1 X32.591 Y151.511 E9.04534
G1 X33.149 Y150.09 E9.1215
G1 X33.33 Y149.665 E9.14455
G1 X33.97 Y148.282 E9.22058
G1 X34.181 Y147.861 E9.24407
G1 X34.904 Y146.518 E9.32016
G1 X35.134 Y146.119 E9.34314
G1 X35.935 Y144.821 E9.41924
G1 X36.196 Y144.425 E9.4429
G1 X37.075 Y143.177 E9.51905
G1 X37.355 Y142.804 E9.54232
G1 X38.307 Y141.611 E9.61847
G1 X38.607 Y141.257 E9.64162
G1 X39.628 Y140.123 E9.71775
G1 X39.948 Y139.788 E9.74086
G1 X41.034 Y138.717 E9.81696
G1 X41.379 Y138.397 E9.84043
G1 X42.527 Y137.394 E9.91649
G1 X42.889 Y137.097 E9.93985
G1 X44.096 Y136.164 E10.01596
G1 X44.474 Y135.889 E10.03928
G1 X45.736 Y135.029 E10.11547
G1 X46.128 Y134.779 E10.13867
G1 X47.437 Y133.997 E10.21474
G1 X47.841 Y133.771 E10.23783
G1 X49.196 Y133.067 E10.31402
G1 X49.62 Y132.863 E10.33749
G1 X51.013 Y132.243 E10.41356
G1 X51.447 Y132.065 E10.43696
G0 F3600 X51.588 Y132.44
G1 F600 X53.018 Y131.904 E10.51315
G1 X53.433 Y131.762 E10.53504
G1 X54.891 Y131.312 E10.61116
G1 X55.316 Y131.195 E10.63315
G1 X56.797 Y130.833 E10.70922
G1 X57.235 Y130.739 E10.73157
G1 X58.737 Y130.467 E10.80772
G1 X59.173 Y130.402 E10.82971
G1 X60.687 Y130.22 E10.90579
G1 X61.129 Y130.18 E10.92793
G1 X62.652 Y130.089 E11.00405
G1 X63.093 Y130.076 E11.02606
G1 X64.619 Y130.076 E11.10219
G1 X65.06 Y130.089 E11.1242
G1 X66.583 Y130.18 E11.20032
G1 X67.026 Y130.22 E11.22251
G1 X68.539 Y130.402 E11.29854
G1 X68.968 Y130.466 E11.32018
G1 X70.471 Y130.737 E11.39638
G1 X70.92 Y130.833 E11.41928
G1 X72.401 Y131.196 E11.49536
G1 X72.821 Y131.312 E11.51709
G1 X74.279 Y131.762 E11.59322
G1 X74.694 Y131.904 E11.6151
G1 X76.124 Y132.44 E11.69129
G1 X76.536 Y132.608 E11.71349
G1 X77.929 Y133.228 E11.78956
G1 X78.332 Y133.422 E11.81188
G1 X79.687 Y134.126 E11.88806
G1 X80.07 Y134.34 E11.90994
G1 X81.379 Y135.122 E11.98602
G1 X81.752 Y135.361 E12.00812
G1 X83.012 Y136.22 E12.0842
G1 X83.37 Y136.479 E12.10624
G1 X84.577 Y137.412 E12.18235
G1 X84.917 Y137.692 E12.20433
G1 X86.066 Y138.695 E12.28042
G1 X86.396 Y139.001 E12.30287
G1 X87.482 Y140.072 E12.37897
G1 X87.785 Y140.39 E12.40088
G1 X88.806 Y141.524 E12.47701
G1 X89.093 Y141.862 E12.49913
G1 X90.045 Y143.056 E12.57532
G1 X90.307 Y143.406 E12.59713
G1 X91.186 Y144.653 E12.67325
G1 X91.434 Y145.028 E12.69568
G1 X92.235 Y146.325 E12.77173
G1 X92.455 Y146.706 E12.79368
G1 X93.179 Y148.051 E12.86988
G1 X93.379 Y148.45 E12.89215
G1 X94.019 Y149.833 E12.96818
G1 X94.19 Y150.235 E12.98997
G1 X94.748 Y151.655 E13.06609
G1 X94.898 Y152.072 E13.0882
G1 X95.37 Y153.523 E13.16433
G1 X95.495 Y153.951 E13.18657
G1 X95.879 Y155.429 E13.26276
G1 X95.978 Y155.864 E13.28501
G1 X96.272 Y157.361 E13.36113
G1 X96.344 Y157.792 E13.38293
G1 X96.549 Y159.303 E13.459
G1 X96.595 Y159.745 E13.48117
G1 X96.709 Y161.266 E13.55727
G1 X96.729 Y161.707 E13.57929
G1 X96.752 Y163.233 E13.65543
G1 X96.746 Y163.675 E13.67749
G1 X96.678 Y165.199 E13.7536
G1 X96.644 Y165.645 E13.77591
G1 X96.484 Y167.163 E13.85206
G1 X96.426 Y167.594 E13.87376
G1 X96.177 Y169.1 E13.94991
G1 X96.09 Y169.543 E13.97244
G1 X95.75 Y171.029 E14.04849
G1 X95.639 Y171.455 E14.07045
G1 X95.211 Y172.919 E14.14655
G1 X95.074 Y173.34 E14.16864
G1 X94.559 Y174.777 E14.2448
G1 X94.398 Y175.187 E14.26677
G1 X93.799 Y176.589 E14.34283
G1 X93.614 Y176.989 E14.36482
G1 X92.932 Y178.354 E14.44095
G1 X92.719 Y178.75 E14.46338
G1 X91.955 Y180.072 E14.53956
G1 X91.725 Y180.445 E14.56142
G1 X90.885 Y181.718 E14.63751
G1 X90.63 Y182.079 E14.65956
G1 X89.716 Y183.299 E14.73561
G1 X89.438 Y183.648 E14.75787
G1 X88.451 Y184.812 E14.83401
G1 X88.155 Y185.141 E14.85609
G1 X87.1 Y186.244 E14.93224
G1 X86.782 Y186.557 E14.9545
G1 X85.662 Y187.595 E15.03069
G1 X85.335 Y187.88 E15.05233
G1 X84.158 Y188.849 E15.12839
G1 X83.806 Y189.122 E15.15061
G1 X82.572 Y190.019 E15.22672
G1 X82.204 Y190.27 E15.24895
G1 X80.917 Y191.092 E15.32513
G1 X80.539 Y191.318 E15.34711
G1 X79.207 Y192.061 E15.4232
G1 X78.806 Y192.268 E15.44571
G1 X77.432 Y192.928 E15.52176
G1 X77.042 Y193.102 E15.54307
G1 X75.629 Y193.683 E15.61929
G1 X75.203 Y193.843 E15.64199
G1 X73.76 Y194.335 E15.71805
G1 X73.338 Y194.465 E15.74008
G1 X71.868 Y194.87 E15.81615
G1 X71.444 Y194.974 E15.83793
G1 X69.951 Y195.292 E15.91409
G1 X69.514 Y195.371 E15.93625
G1 X68.004 Y195.599 E16.01243
G1 X67.559 Y195.653 E16.0348
G1 X66.04 Y195.789 E16.11088
G1 X65.603 Y195.815 E16.13272
G1 X64.079 Y195.861 E16.20879
G1 X63.633 Y195.861 E16.23104
G1 X62.109 Y195.815 E16.30711
G1 X61.673 Y195.789 E16.3289
G1 X60.153 Y195.653 E16.40504
G1 X59.706 Y195.599 E16.4275
G1 X58.197 Y195.371 E16.50364
G1 X57.767 Y195.293 E16.52544
G1 X56.273 Y194.976 E16.60164
G1 X55.838 Y194.87 E16.62397
G1 X54.369 Y194.464 E16.70001
G1 X53.948 Y194.334 E16.72199
G1 X52.505 Y193.841 E16.79807
G1 X52.087 Y193.684 E16.82035
G1 X50.674 Y193.104 E16.89655
G1 X50.28 Y192.928 E16.91808
G1 X48.906 Y192.268 E16.99413
G1 X48.505 Y192.061 E17.01664
G1 X47.173 Y191.318 E17.09273
G1 X46.795 Y191.092 E17.11471
G1 X45.508 Y190.27 E17.19089
G1 X45.14 Y190.019 E17.21312
G1 X43.906 Y189.122 E17.28923
G1 X43.556 Y188.851 E17.31131
G1 X42.378 Y187.882 E17.38741
G1 X42.049 Y187.595 E17.40919
G1 X40.93 Y186.558 E17.48531
G1 X40.61 Y186.243 E17.50771
G1 X39.555 Y185.139 E17.58389
G1 X39.261 Y184.812 E17.60583
G1 X38.274 Y183.648 E17.68197
G1 X37.996 Y183.299 E17.70423
G1 X37.082 Y182.079 E17.78028
G1 X36.827 Y181.718 E17.80233
G1 X35.987 Y180.445 E17.87842
G1 X35.757 Y180.072 E17.90029
G1 X34.993 Y178.75 E17.97646
G1 X34.78 Y178.354 E17.9989
G1 X34.098 Y176.989 E18.07502
G1 X33.913 Y176.589 E18.09701
G1 X33.314 Y175.187 E18.17307
G1 X33.153 Y174.777 E18.19505
G1 X32.638 Y173.34 E18.27121
G1 X32.501 Y172.919 E18.29329
G1 X32.073 Y171.455 E18.36939
G1 X31.961 Y171.025 E18.39156
G1 X31.622 Y169.539 E18.4676
G1 X31.537 Y169.105 E18.48966
G1 X31.287 Y167.599 E18.56583
G1 X31.228 Y167.163 E18.58778
G1 X31.068 Y165.645 E18.66393
G1 X31.034 Y165.199 E18.68625
G1 X30.966 Y163.676 E18.7623
G1 X30.96 Y163.234 E18.78436
G1 X30.983 Y161.708 E18.8605
G1 X31.003 Y161.267 E18.88252
G1 X31.117 Y159.747 E18.95857
G1 X31.162 Y159.311 E18.98044
G1 X31.366 Y157.799 E19.05655
G1 X31.439 Y157.363 E19.07861
G1 X31.733 Y155.865 E19.15477
G1 X31.833 Y155.423 E19.17738
G1 X32.218 Y153.946 E19.25353
G1 X32.342 Y153.524 E19.27547
G1 X32.814 Y152.073 E19.3516
G1 X32.963 Y151.657 E19.37364
G1 X33.521 Y150.236 E19.44981
G1 X33.693 Y149.833 E19.47167
G1 X34.333 Y148.45 E19.54769
G1 X34.533 Y148.05 E19.57001
G1 X35.256 Y146.707 E19.6461
G1 X35.475 Y146.329 E19.6679
G1 X36.276 Y145.031 E19.74399
G1 X36.523 Y144.656 E19.76639
G1 X37.402 Y143.408 E19.84255
G1 X37.668 Y143.053 E19.86468
G1 X38.62 Y141.86 E19.94083
G1 X38.905 Y141.525 E19.96277
G1 X39.926 Y140.391 E20.0389
G1 X40.229 Y140.073 E20.06081
G1 X41.315 Y139.002 E20.13691
G1 X41.642 Y138.698 E20.15918
G1 X42.79 Y137.695 E20.23524
G1 X43.133 Y137.413 E20.25739
G1 X44.34 Y136.48 E20.3335
G1 X44.699 Y136.22 E20.35562
G1 X45.961 Y135.36 E20.43181
G1 X46.333 Y135.122 E20.45384
G1 X47.642 Y134.34 E20.52991
G1 X48.025 Y134.126 E20.5518
G1 X49.38 Y133.422 E20.62798
G1 X49.783 Y133.228 E20.6503
G1 X51.176 Y132.608 E20.72637
G1 X51.588 Y132.44 E20.74856
G0 F3600 X51.728 Y132.814
G1 F600 X53.158 Y132.278 E20.82475
G1 X53.551 Y132.144 E20.84547
G1 X55.009 Y131.694 E20.92159
G1 X55.411 Y131.583 E20.9424
G1 X56.892 Y131.221 E21.01846
G1 X57.307 Y131.133 E21.03963
G1 X58.809 Y130.861 E21.11578
G1 X59.221 Y130.799 E21.13657
G1 X60.735 Y130.617 E21.21265
G1 X61.152 Y130.579 E21.23354
G1 X62.675 Y130.488 E21.30966
G1 X63.093 Y130.476 E21.33052
G1 X64.619 Y130.476 E21.40665
G1 X65.037 Y130.488 E21.42751
G1 X66.56 Y130.579 E21.50363
G1 X66.978 Y130.617 E21.52457
G1 X68.491 Y130.799 E21.6006
G1 X68.897 Y130.86 E21.62108
G1 X70.4 Y131.131 E21.69728
G1 X70.824 Y131.221 E21.7189
G1 X72.305 Y131.584 E21.79498
G1 X72.703 Y131.694 E21.81558
G1 X74.161 Y132.144 E21.8917
G1 X74.554 Y132.278 E21.91242
G1 X75.984 Y132.814 E21.98861
G1 X76.373 Y132.974 E22.00959
G1 X77.766 Y133.594 E22.08566
G1 X78.147 Y133.777 E22.10675
G1 X79.502 Y134.481 E22.18293
G1 X79.865 Y134.684 E22.20368
G1 X81.174 Y135.466 E22.27975
G1 X81.527 Y135.691 E22.30064
G1 X82.787 Y136.55 E22.37672
G1 X83.125 Y136.796 E22.39757
G1 X84.332 Y137.729 E22.47368
G1 X84.654 Y137.994 E22.49449
G1 X85.803 Y138.997 E22.57058
G1 X86.115 Y139.286 E22.5918
G1 X87.201 Y140.357 E22.66789
G1 X87.488 Y140.657 E22.68861
G1 X88.509 Y141.791 E22.76474
G1 X88.78 Y142.111 E22.78566
G1 X89.732 Y143.305 E22.86184
G1 X89.98 Y143.636 E22.88248
G1 X90.859 Y144.883 E22.95859
G1 X91.094 Y145.238 E22.97983
G1 X91.895 Y146.535 E23.05588
G1 X92.103 Y146.895 E23.07663
G1 X92.827 Y148.24 E23.15283
G1 X93.016 Y148.618 E23.17392
G1 X93.656 Y150.001 E23.24995
G1 X93.818 Y150.381 E23.27056
G1 X94.376 Y151.801 E23.34667
G1 X94.518 Y152.196 E23.36761
G1 X94.99 Y153.647 E23.44374
G1 X95.108 Y154.052 E23.46478
G1 X95.492 Y155.53 E23.54097
G1 X95.586 Y155.941 E23.562
G1 X95.88 Y157.438 E23.63812
G1 X95.947 Y157.846 E23.65874
G1 X96.152 Y159.357 E23.73482
G1 X96.196 Y159.775 E23.75579
G1 X96.31 Y161.296 E23.83188
G1 X96.329 Y161.714 E23.85276
G1 X96.352 Y163.24 E23.9289
G1 X96.346 Y163.657 E23.94971
G1 X96.278 Y165.181 E24.02582
G1 X96.246 Y165.603 E24.04693
G1 X96.086 Y167.121 E24.12308
G1 X96.031 Y167.529 E24.14362
G1 X95.782 Y169.035 E24.21978
G1 X95.7 Y169.454 E24.24108
G1 X95.36 Y170.94 E24.31713
G1 X95.255 Y171.343 E24.33791
G1 X94.827 Y172.807 E24.414
G1 X94.698 Y173.205 E24.43488
G1 X94.183 Y174.642 E24.51103
G1 X94.03 Y175.03 E24.53184
G1 X93.431 Y176.432 E24.6079
G1 X93.256 Y176.811 E24.62873
G1 X92.574 Y178.176 E24.70486
G1 X92.373 Y178.55 E24.72604
G1 X91.609 Y179.872 E24.80222
G1 X91.391 Y180.224 E24.82287
G1 X90.551 Y181.497 E24.89897
G1 X90.31 Y181.839 E24.91984
G1 X89.396 Y183.059 E24.99589
G1 X89.133 Y183.389 E25.01694
G1 X88.146 Y184.553 E25.09308
G1 X87.866 Y184.864 E25.11396
G1 X86.811 Y185.967 E25.19011
G1 X86.51 Y186.263 E25.21117
G1 X85.39 Y187.301 E25.28735
G1 X85.081 Y187.571 E25.30783
